/* XPM */
static char *tile0681729364750[] = {
/* columns rows colors chars-per-pixel */
"1090 597 28 1 ",
"  c None",
". c gray8",
"X c #181616",
"o c #1A1818",
"O c #201A1A",
"+ c #261F1F",
"@ c #222020",
"# c #282323",
"$ c #282828",
"% c #302C2C",
"& c gray19",
"* c #383636",
"= c gray22",
"- c #403F3F",
"; c gray25",
": c #464646",
"> c #484848",
", c #504F4F",
"< c #505050",
"1 c #555555",
"2 c #5A5A5A",
"3 c gray38",
"4 c #686868",
"5 c gray44",
"6 c gray47",
"7 c #848484",
"8 c #898989",
"9 c #909090",
/* pixels */
"                                                                                                                                                                                                                                                                                                                                                                                                                                                                                                                                                                                                                                                                                                                                                                                                                                                                                                                                                                                                                                                                                                                                  ",
"                                                                                                                                                                                                                                                                                                                                                                                                                                                                                                                                                                                                                                                                                                                                                                                                                                                                                                                                                                                                                                                                                                                                  ",
"                                                                                                                                                                                                                                                                                                                                                                                                                                                                                                                                                                                                                                                                                                                                                                                                                                                                                                                                                                                                                                                                                                                                  ",
"                                                                                                                                                                                                                                                                                                                                                                                                                                                                                                                                                                                                                                                                                                                                                                                                                                                                                                                                                                                                                                                                                                                                  ",
"                                                                                                                                                                                                                                                                                                                                                                                                                                                                                                                                                                                                                                                                                                                                                                                                                                                                                                                                                                                                                                                                                                                                  ",
"                                                                                                                                                                                                                                                                                                                                                                                                                                                                                                                                                                                                                                                                                                                                                                                                                                                                                                                                                                                                                                                                                                                                  ",
"                                                                                                                                                                                                                                                                                                                                                                                                                                                                                                                                                                                                                                                                                                                                                                                                                                                                                                                                                                                                                                                                                                                                  ",
"                                                                                                                                                                                                                                                                                                                                                                                                                                                                                                                                                                                                                                                                                                                                                                                                                                                                                                                                                                                                                                                                                                                                  ",
"                                                                                                                                                                                                                                                                                                                                                                                                                                                                                                                                                                                                                                                                                                                                                                                                                                                                                                                                                                                                                                                                                                                                  ",
"                                                                                                                                                                                                                                                                                                                                                                                                                                                                                                                                                                                                                                                                                                                                                                                                                                                                                                                                                                                                                                                                                                                                  ",
"                                                                                                                                                                                                                                                                                                                                                                                                                                                                                                                                                                                                                                                                                                                                                                                                                                                                                                                                                                                                                                                                                                                                  ",
"                                                                                                                                                                                                                                                                                                                                                                                                                                                                                                                                                                                                                                                                                                                                                                                                                                                                                                                                                                                                                                                                                                                                  ",
"                                                                                                                                                                                                                                                                                                                                                                                                                                                                                                                                                                                                                                                                                                                                                                                                                                                                                                                                                                                                                                                                                                                                  ",
"                                                                                                                                                                                                                                                                                                                                                                                                                                                                                                                                                                                                                                                                                                                                                                                                                                                                                                                                                                                                                                                                                                                                  ",
"                                                                                                                                                                                                                                                                                                                                                                                                                                                                                                                                                                                                                                                                                                                                                                                                                                                                                                                                                                                                                                                                                                                                  ",
"                                                                                                                                                                                                                                                                                                                                                                                                                                                                                                                                                                                                                                                                                                                                                                                                                                                                                                                                                                                                                                                                                                                                  ",
"                                                                                                                                                                                                                                                                                                                                                                                                                                                                                                                                                                                                                                                                                                                                                                                                                                                                                                                                                                                                                                                                                                                                  ",
"                                                                                                                                                                                                                                                                                                                                                                                                                                                                                                                                                                                                                                                                                                                                                                                                                                                                                                                                                                                                                                                                                                                                  ",
"                                                                                                                                                                                                                                                                                                                                                                                                                                                                                                                                                                                                                                                                                                                                                                                                                                                                                                                                                                                                                                                                                                                                  ",
"                                                                                                                                                                                                                                                                                                                                                                                                                                                                                                                                                                                                                                                                                                                                                                                                                                                                                                                                                                                                                                                                                                                                  ",
"                                                                                                                                                                                                                                                                                                                                                                                                                                                                                                                                                                                                                                                                                                                                                                                                                                                                                                                                                                                                                                                                                                                                  ",
"                                                                                                                                                                                                                                                                                                                                                                                                                                                                                                                                                                                                                                                                                                                                                                                                                                                                                                                                                                                                                                                                                                                                  ",
"                                                                                                                                                                                                                                                                                                                                                                                                                                                                                                                                                                                                                                                                                                                                                                                                                                                                                                                                                                                                                                                                                                                                  ",
"                                                                                                                                                                                                                                                                                                                                                                                                                                                                                                                                                                                                                                                                                                                                                                                                                                                                                                                                                                                                                                                                                                                                  ",
"                                                                                                                                                                                                                                                                                                                                                                                                                                                                                                                                                                                                                                                                                                                                                                                                                                                                                                                                                                                                                                                                                                                                  ",
"                                                                                                                                                                                                                                                                                                                                                                                                                                                                                                                                                                                                                                                                                                                                                                                                                                                                                                                                                                                                                                                                                                                                  ",
"                                                                                                                                                                                                                                                                                                                                                                                                                                                                                                                                                                                                                                                                                                                                                                                                                                                                                                                                                                                                                                                                                                                                  ",
"                                                                                                                                                                                                                                                                                                                                                                                                                                                                                                                                                                                                                                                                                                                                                                                                                                                                                                                                                                                                                                                                                                                                  ",
"                                                                                                                                                                                                                                                                                                                                                                                                                                                                                                                                                                                                                                                                                                                                                                                                                                                                                                                                                                                                                                                                                                                                  ",
"                                                                                                                                                                                                                                                                                                                                                                                                                                                                                                                                                                                                                                                                                                                                                                                                                                                                                                                                                                                                                                                                                                                                  ",
"                                                                                                                                                                                                                                                                                                                                                                                                                                                                                                                                                                                                                                                                                                                                                                                                                                                                                                                                                                                                                                                                                                                                  ",
"                                                                                                                                                                                                                                                                                                                                                                                                                                                                                                                                                                                                                                                                                                                                                                                                                                                                                                                                                                                                                                                                                                                                  ",
"                                                                                                                                                                                                                                                                                                                                                                                                                                                                                                                                                                                                                                                                                                                                                                                                                                                                                                                                                                                                                                                                                                                                  ",
"                                                                                                                                                                                                                                                                                                                                                                                                                                                                                                                                                                                                                                                                                                                                                                                                                                                                                                                                                                                                                                                                                                                                  ",
"                                                                                                                                                                                                                                                                                                                                                                                                                                                                                                                                                                                                                                                                                                                                                                                                                                                                                                                                                                                                                                                                                                                                  ",
"                                                                                                                                                                                                                                                                                                                                                                                                                                                                                                                                                                                                                                                                                                                                                                                                                                                                                                                                                                                                                                                                                                                                  ",
"                                                                                                                                                                                                                                                                                                                                                                                                                                                                                                                                                                                                                                                                                                                                                                                                                                                                                                                                                                                                                                                                                                                                  ",
"                                                                                                                                                                                                                                                                                                                                                                                                                                                                                                                                                                                                                                                                                                                                                                                                                                                                                                                                                                                                                                                                                                                                  ",
"                                                                                                                                                                                                                                                                                                                                                                                                                                                                                                                                                                                                                                                                                                                                                                                                                                                                                                                                                                                                                                                                                                                                  ",
"                                                                                                                                                                                                                                                                                                                                                                                                                                                                                                                                                                                                                                                                                                                                                                                                                                                                                                                                                                                                                                                                                                                                  ",
"                                                                                                                                                                                                                                                                                                                                                                                                                                                                                                                                                                                                                                                                                                                                                                                                                                                                                                                                                                                                                                                                                                                                  ",
"                                                                                                                                                                                                                                                                                                                                                                                                                                                                                                                                                                                                                                                                                                                                                                                                                                                                                                                                                                                                                                                                                                                                  ",
"                                                                                                                                                                                                                                                                                                                                                                                                                                                                                                                                                                                                                                                                                                                                                                                                                                                                                                                                                                                                                                                                                                                                  ",
"                                                                                                                                                                                                                                                                                                                                                                                                                                                                                                                                                                                                                                                                                                                                                                                                                                                                                                                                                                                                                                                                                                                                  ",
"                                                                                                                                                                                                                                                                                                                                                                                                                                                                                                                                                                                                                                                                                                                                                                                                                                                                                                                                                                                                                                                                                                                                  ",
"                                                                                                                                                                                                                                                                                                                                                                                                                                                                                                                                                                                                                                                                                                                                                                                                                                                                                                                                                                                                                                                                                                                                  ",
"                                                                                                                                                                                                                                                                                                                                                                                                                                                                                                                                                                                                                                                                                                                                                                                                                                                                                                                                                                                                                                                                                                                                  ",
"                                                                                                                                                                                                                                                                                                                                                                                                                                                                                                                                                                                                                                                                                                                                                                                                                                                                                                                                                                                                                                                                                                                                  ",
"                                                                                                                                                                                                                                                                                                                                                                                                                                                                                                                                                                                                                                                                                                                                                                                                                                                                                                                                                                                                                                                                                                                                  ",
"                                                                                                                                                                                                                                                                                                                                                                                                                                                                                                                                                                                                                                                                                                                                                                                                                                                                                                                                                                                                                                                                                                                                  ",
"                                                                                                                                                                                                                                                                                                                                                                                                                                                                                                                                                                                                                                                                                                                                                                                                                                                                                                                                                                                                                                                                                                                                  ",
"                                                                                                                                                                                                                                                                                                                                                                                                                                                                                                                                                                                                                                                                                                                                                                                                                                                                                                                                                                                                                                                                                                                                  ",
"                                                                                                                                                                                                                                                                                                                                                                                                                                                                                                                                                                                                                                                                                                                                                                                                                                                                                                                                                                                                                                                                                                                                  ",
"                                                                                                                                                                                                                                                                                                                                                                                                                                                                                                                                                                                                                                                                                                                                                                                                                                                                                                                                                                                                                                                                                                                                  ",
"                                                                                                                                                                                                                                                                                                                                                                                                                                                                                                                                                                                                                                                                                                                                                                                                                                                                                                                                                                                                                                                                                                                                  ",
"                                                                                                                                                                                                                                                                                                                                                                                                                                                                                                                                                                                                                                                                                                                                                                                                                                                                                                                                                                                                                                                                                                                                  ",
"                                                                                                                                                                                                                                                                                                                                                                                                                                                                                                                                                                                                                                                                                                                                                                                                                                                                                                                                                                                                                                                                                                                                  ",
"                                                                                                                                                                                                                                                                                                                                                                                                                                                                                                                                                                                                                                                                                                                                                                                                                                                                                                                                                                                                                                                                                                                                  ",
"                                                                                                                                                                                                                                                                                                                                                                                                                                                                                                                                                                                                                                                                                                                                                                                                                                                                                                                                                                                                                                                                                                                                  ",
"                                                                                                                                                                                                                                                                                                                                                                                                                                                                                                                                                                                                                                                                                                                                                                                                                                                                                                                                                                                                                                                                                                                                  ",
"                                                                                                                                                                                                                                                                                                                                                                                                                                                                                                                                                                                                                                                                                                                                                                                                                                                                                                                                                                                                                                                                                                                                  ",
"                                                                                                                                                                                                                                                                                                                                                                                                                                                                                                                                                                                                                                                                                                                                                                                                                                                                                                                                                                                                                                                                                                                                  ",
"                                                                                                                                                                                                                                                                                                                                                                                                                                                                                                                                                                                                                                                                                                                                                                                                                                                                                                                                                                                                                                                                                                                                  ",
"                                                                                                                                                                                                                                                                                                                                                                                                                                                                                                                                                                                                                                                                                                                                                                                                                                                                                                                                                                                                                                                                                                                                  ",
"                                                                                                                                                                                                                                                                                                                                                                                                                                                                                                                                                                                                                                                                                                                                                                                                                                                                                                                                                                                                                                                                                                                                  ",
"                                                                                                                                                                                                                                                                                                                                                                                                                                                                                                                                                                                                                                                                                                                                                                                                                                                                                                                                                                                                                                                                                                                                  ",
"                                                                                                                                                                                                                                                                                                                                                                                                                                                                                                                                                                                                                                                                                                                                                                                                                                                                                                                                                                                                                                                                                                                                  ",
"                                                                                                                                                                                                                                                                                                                                                                                                                                                                                                                                                                                                                                                                                                                                                                                                                                                                                                                                                                                                                                                                                                                                  ",
"                                                                                                                                                                                                                                                                                                                                                                                                                                                                                                                                                                                                                                                                                                                                                                                                                                                                                                                                                                                                                                                                                                                                  ",
"                                                                                                                                                                                                                                                                                                                                                                                                                                                                                                                                                                                                                                                                                                                                                                                                                                                                                                                                                                                                                                                                                                                                  ",
"                                                                                                                                                                                                                                                                                                                                                                                                                                                                                                                                                                                                                                                                                                                                                                                                                                                                                                                                                                                                                                                                                                                                  ",
"                                                                                                                                                                                                                                                                                                                                                                                                                                                                                                                                                                                                                                                                                                                                                                                                                                                                                                                                                                                                                                                                                                                                  ",
"                                                                                                                                                                                                                                                                                                                                                                                                                                                                                                                                                                                                                                                                                                                                                                                                                                                                                                                                                                                                                                                                                                                                  ",
"                                                                                                                                                                                                                                                                                                                                                                                                                                                                                                                                                                                                                                                                                                                                                                                                                                                                                                                                                                                                                                                                                                                                  ",
"                                                                                                                                                                                                                                                                                                                                                                                                                                                                                                                                                                                                                                                                                                                                                                                                                                                                                                                                                                                                                                                                                                                                  ",
"                                                                                                                                                                                                                                                                                                                                                                                                                                                                                                                                                                                                                                                                                                                                                                                                                                                                                                                                                                                                                                                                                                                                  ",
"                                                                                                                                                                                                                                                                                                                                                                                                                                                                                                                                                                                                                                                                                                                                                                                                                                                                                                                                                                                                                                                                                                                                  ",
"                                                                                                                                                                                                                                                                                                                                                                                                                                                                                                                                                                                                                                                                                                                                                                                                                                                                                                                                                                                                                                                                                                                                  ",
"                                                                                                                                                                                                                                                                                                                                                                                                                                                                                                                                                                                                                                                                                                                                                                                                                                                                                                                                                                                                                                                                                                                                  ",
"                                                                                                                                                                                                                                                                                                                                                                                                                                                                                                                                                                                                                                                                                                                                                                                                                                                                                                                                                                                                                                                                                                                                  ",
"                                                                                                                                                                                                                                                                                                                                                                                                                                                                                                                                                                                                                                                                                                                                                                                                                                                                                                                                                                                                                                                                                                                                  ",
"                                                                                                                                                                                                                                                                                                                                                                                                                                                                                                                                                                                                                                                                                                                                                                                                                                                                                                                                                                                                                                                                                                                                  ",
"                                                                                                                                                                                                                                                                                                                                                                                                                                                                                                                                                                                                                                                                                                                                                                                                                                                                                                                                                                                                                                                                                                                                  ",
"                                                                                                                                                                                                                                                                                                                                                                                                                                                                                                                                                                                                                                                                                                                                                                                                                                                                                                                                                                                                                                                                                                                                  ",
"                                                                                                                                                                                                                                                                                                                                                                                                                                                                                                                                                                                                                                                                                                                                                                                                                                                                                                                                                                                                                                                                                                                                  ",
"                                                                                                                                                                                                                                                                                                                                                                                                                                                                                                                                                                                                                                                                                                                                                                                                                                                                                                                                                                                                                                                                                                                                  ",
"                                                                                                                                                                                                                                                                                                                                                                                                                                                                                                                                                                                                                                                                                                                                                                                                                                                                                                                                                                                                                                                                                                                                  ",
"                                                                                                                                                                                                                                                                                                                                                                                                                                                                                                                                                                                                                                                                                                                                                                                                                                                                                                                                                                                                                                                                                                                                  ",
"                                                                                                                                                                                                                                                                                                                                                                                                                                                                                                                                                                                                                                                                                                                                                                                                                                                                                                                                                                                                                                                                                                                                  ",
"                                                                                                                                                                                                                                                                                                                                                                                                                                                                                                                                                                                                                                                                                                                                                                                                                                                                                                                                                                                                                                                                                                                                  ",
"                                                                                                                                                                                                                                                                                                                                                                                                                                                                                                                                                                                                                                                                                                                                                                                                                                                                                                                                                                                                                                                                                                                                  ",
"                                                                                                                                                                                                                                                                                                                                                                                                                                                                                                                                                                                                                                                                                                                                                                                                                                                                                                                                                                                                                                                                                                                                  ",
"                                                                                                                                                                                                                                                                                                                                                                                                                                                                                                                                                                                                                                                                                                                                                                                                                                                                                                                                                                                                                                                                                                                                  ",
"                                                                                                                                                                                                                                                                                                                                                                                                                                                                                                                                                                                                                                                                                                                                                                                                                                                                                                                                                                                                                                                                                                                                  ",
"                                                                                                                                                                                                                                                                                                                                                                                                                                                                                                                                                                                                                                                                                                                                                                                                                                                                                                                                                                                                                                                                                                                                  ",
"                                                                                                                                                                                                                                                                                                                                                                                                                                                                                                                                                                                                                                                                                                                                                                                                                                                                                                                                                                                                                                                                                                                                  ",
"                                                                                                                                                                                                                                                                                                                                                                                                                                                                                                                                                                                                                                                                                                                                                                                                                                                                                                                                                                                                                                                                                                                                  ",
"                                                                                                                                                                                                                                                                                                                                                                                                                                                                                                                                                                                                                                                                                                                                                                                                                                                                                                                                                                                                                                                                                                                                  ",
"                                                                                                                                                                                                                                                                                                                                                                                                                                                                                                                                                                                                                                                                                                                                                                                                                                                                                                                                                                                                                                                                                                                                  ",
"                                                                                                                                                                                                                                                                                                                                                                                                                                                                                                                                                                                                                                                                                                                                                                                                                                                                                                                                                                                                                                                                                                                                  ",
"                                                                                                                                                                                                                                                                                                                                                                                                                                                                                                                                                                                                                                                                                                                                                                                                                                                                                                                                                                                                                                                                                                                                  ",
"                                                                                                                                                                                                                                                                                                                                                                                                                                                                                                                                                                                                                                                                                                                                                                                                                                                                                                                                                                                                                                                                                                                                  ",
"                                                                                                                                                                                                                                                                                                                                                                                                                                                                                                                                                                                                                                                                                                                                                                                                                                                                                                                                                                                                                                                                                                                                  ",
"                                                                                                                                                                                                                                                                                                                                                                                                                                                                                                                                                                                                                                                                                                                                                                                                                                                                                                                                                                                                                                                                                                                                  ",
"                                                                                                                                                                                                                                                                                                                                                                                                                                                                                                                                                                                                                                                                                                                                                                                                                                                                                                                                                                                                                                                                                                                                  ",
"                                                                                                                                                                                                                                                                                                                                                                                                                                                                                                                                                                                                                                                                                                                                                                                                                                                                                                                                                                                                                                                                                                                                  ",
"                                                                                                                                                                                                                                                                                                                                                                                                                                                                                                                                                                                                                                                                                                                                                                                                                                                                                                                                                                                                                                                                                                                                  ",
"                                                                                                                                                                                                                                                                                                                                                                                                                                                                                                                                                                                                                                                                                                                                                                                                                                                                                                                                                                                                                                                                                                                                  ",
"                                                                                                                                                                                                                                                                                                                                                                                                                                                                                                                                                                                                                                                                                                                                                                                                                                                                                                                                                                                                                                                                                                                                  ",
"                                                                                                                                                                                                                                                                                                                                                                                                                                                                                                                                                                                                                                                                                                                                                                                                                                                                                                                                                                                                                                                                                                                                  ",
"                                                                                                                                                                                                                                                                                                                                                                                                                                                                                                                                                                                                                                                                                                                                                                                                                                                                                                                                                                                                                                                                                                                                  ",
"                                                                                                                                                                                                                                                                                                                                                                                                                                                                                                                                                                                                                                                                                                                                                                                                                                                                                                                                                                                                                                                                                                                                  ",
"                                                                                                                                                                                                                                                                                                                                                                                                                                                                                                                                                                                                                                                                                                                                                                                                                                                                                                                                                                                                                                                                                                                                  ",
"                                                                                                                                                                                                                                                                                                                                                                                                                                                                                                                                                                                                                                                                                                                                                                                                                                                                                                                                                                                                                                                                                                                                  ",
"                                                                                                                                                                                                                                                                                                                                                                                                                                                                                                                                                                                                                                                                                                                                                                                                                                                                                                                                                                                                                                                                                                                                  ",
"                                                                                                                                                                                                                                                                                                                                                                                                                                                                                                                                                                                                                                                                                                                                                                                                                                                                                                                                                                                                                                                                                                                                  ",
"                                                                                                                                                                                                                                                                                                                                                                                                                                                                                                                                                                                                                                                                                                                                                                                                                                                                                                                                                                                                                                                                                                                                  ",
"                                                                                                                                                                                                                                                                                                                                                                                                                                                                                                                                                                                                                                                                                                                                                                                                                                                                                                                                                                                                                                                                                                                                  ",
"                                                                                                                                                                                                                                                                                                                                                                                                                                                                                                                                                                                                                                                                                                                                                                                                                                                                                                                                                                                                                                                                                                                                  ",
"                                                                                                                                                                                                                                                                                                                                                                                                                                                                                                                                                                                                                                                                                                                                                                                                                                                                                                                                                                                                                                                                                                                                  ",
"                                                                                                                                                                                                                                                                                                                                                                                                                                                                                                                                                                                                                                                                                                                                                                                                                                                                                                                                                                                                                                                                                                                                  ",
"                                                                                                                                                                                                                                                                                                                                                                                                                                                                                                                                                                                                                                                                                                                                                                                                                                                                                                                                                                                                                                                                                                                                  ",
"                                                                                                                                                                                                                                                                                                                                                                                                                                                                                                                                                                                                                                                                                                                                                                                                                                                                                                                                                                                                                                                                                                                                  ",
"                                                                                                                                                                                                                                                                                                                                                                                                                                                                                                                                                                                                                                                                                                                                                                                                                                                                                                                                                                                                                                                                                                                                  ",
"                                                                                                                                                                                                                                                                                                                                                                                                                                                                                                                                                                                                                                                                                                                                                                                                                                                                                                                                                                                                                                                                                                                                  ",
"                                                                                                                                                                                                                                                                                                                                                                                                                                                                                                                                                                                                                                                                                                                                                                                                                                                                                                                                                                                                                                                                                                                                  ",
"                                                                                                                                                                                                                                                                                                                                                                                                                                                                                                                                                                                                                                                                                                                                                                                                                                                                                                                                                                                                                                                                                                                                  ",
"                                                                                                                                                                                                                                                                                                                                                                                                                                                                                                                                                                                                                                                                                                                                                                                                                                                                                                                                                                                                                                                                                                                                  ",
"                                                                                                                                                                                                                                                                                                                                                                                                                                                                                                                                                                                                                                                                                                                                                                                                                                                                                                                                                                                                                                                                                                                                  ",
"                                                                                                                                                                                                                                                                                                                                                                                                                                                                                                                                                                                                                                                                                                                                                                                                                                                                                                                                                                                                                                                                                                                                  ",
"                                                                                                                                                                                                                                                                                                                                                                                                                                                                                                                                                                                                                                                                                                                                                                                                                                                                                                                                                                                                                                                                                                                                  ",
"                                                                                                                                                                                                                                                                                                                                                                                                                                                                                                                                                                                                                                                                                                                                                                                                                                                                                                                                                                                                                                                                                                                                  ",
"                                                                                                                                                                                                                                                                                                                                                                                                                                                                                                                                                                                                                                                                                                                                                                                                                                                                                                                                                                                                                                                                                                                                  ",
"                                                                                                                                                                                                                                                                                                                                                                                                                                                                                                                                                                                                                                                                                                                                                                                                                                                                                                                                                                                                                                                                                                                                  ",
"                                                                                                                                                                                                                                                                                                                                                                                                                                                                                                                                                                                                                                                                                                                                                                                                                                                                                                                                                                                                                                                                                                                                  ",
"                                                                                                                                                                                                                                                                                                                                                                                                                                                                                                                                                                                                                                                                                                                                                                                                                                                                                                                                                                                                                                                                                                                                  ",
"                                                                                                                                                                                                                                                                                                                                                                                                                                                                                                                                                                                                                                                                                                                                                                                                                                                                                                                                                                                                                                                                                                                                  ",
"                                                                                                                                                                                                                                                                                                                                                                                                                                                                                                                                                                                                                                                                                                                                                                                                                                                                                                                                                                                                                                                                                                                                  ",
"                                                                                                                                                                                                                                                                                                                                                                                                                                                                                                                                                                                                                                                                                                                                                                                                                                                                                                                                                                                                                                                                                                                                  ",
"                                                                                                                                                                                                                                                                                                                                                                                                                                                                                                                                                                                                                                                                                                                                                                                                                                                                                                                                                                                                                                                                                                                                  ",
"                                                                                                                                                                                                                                                                                                                                                                                                                                                                                                                                                                                                                                                                                                                                                                                                                                                                                                                                                                                                                                                                                                                                  ",
"                                                                                                                                                                                                                                                                                                                                                                                                                                                                                                                                                                                                                                                                                                                                                                                                                                                                                                                                                                                                                                                                                                                                  ",
"                                                                                                                                                                                                                                                                                                                                                                                                                                                                                                                                                                                                                                                                                                                                                                                                                                                                                                                                                                                                                                                                                                                                  ",
"                                                                                                                                                                                                                                                                                                                                                                                                                                                                                                                                                                                                                                                                                                                                                                                                                                                                                                                                                                                                                                                                                                                                  ",
"                                                                                                                                                                                                                                                                                                                                                                                                                                                                                                                                                                                                                                                                                                                                                                                                                                                                                                                                                                                                                                                                                                                                  ",
"                                                                                                                                                                                                                                                                                                                                                                                                                                                                                                                                                                                                                                                                                                                                                                                                                                                                                                                                                                                                                                                                                                                                  ",
"                                                                                                                                                                                                                                                                                                                                                                                                                                                                                                                                                                                                                                                                                                                                                                                                                                                                                                                                                                                                                                                                                                                                  ",
"                                                                                                                                                                                                                                                                                                                                                                                                                                                                                                                                                                                                                                                                                                                                                                                                                                                                                                                                                                                                                                                                                                                                  ",
"                                                                                                                                                                                                                                                                                                                                                                                                                                                                                                                                                                                                                                                                                                                                                                                                                                                                                                                                                                                                                                                                                                                                  ",
"                                                                                                                                                                                                                                                                                                                                                                                                                                                                                                                                                                                                                                                                                                                                                                                                                                                                                                                                                                                                                                                                                                                                  ",
"                                                                                                                                                                                                                                                                                                                                                                                                                                                                                                                                                                                                                                                                                                                                                                                                                                                                                                                                                                                                                                                                                                                                  ",
"                                                                                                                                                                                                                                                                                                                                                                                                                                                                                                                                                                                                                                                                                                                                                                                                                                                                                                                                                                                                                                                                                                                                  ",
"                                                                                                                                                                                                                                                                                                                                                                                                                                                                                                                                                                                                                                                                                                                                                                                                                                                                                                                                                                                                                                                                                                                                  ",
"                                                                                                                                                                                                                                                                                                                                                                                                                                                                                                                                                                                                                                                                                                                                                                                                                                                                                                                                                                                                                                                                                                                                  ",
"                                                                                                                                                                                                                                                                                                                                                                                                                                                                                                                                                                                                                                                                                                                                                                                                                                                                                                                                                                                                                                                                                                                                  ",
"                                                                                                                                                                                                                                                                                                                                                                                                                                                                                                                                                                                                                                                                                                                                                                                                                                                                                                                                                                                                                                                                                                                                  ",
"                                                                                                                                                                                                                                                                                                                                                                                                                                                                                                                                                                                                                                                                                                                                                                                                                                                                                                                                                                                                                                                                                                                                  ",
"                                                                                                                                                                                                                                                                                                                                                                                                                                                                                                                                                                                                                                                                                                                                                                                                                                                                                                                                                                                                                                                                                                                                  ",
"                                                                                                                                                                                                                                                                                                                                                                                                                                                                                                                                                                                                                                                                                                                                                                                                                                                                                                                                                                                                                                                                                                                                  ",
"                                                                                                                                                                                                                                                                                                                                                                                                                                                                                                                                                                                                                                                                                                                                                                                                                                                                                                                                                                                                                                                                                                                                  ",
"                                                                                                                                                                                                                                                                                                                                                                                                                                                                                                                                                                                                                                                                                                                                                                                                                                                                                                                                                                                                                                                                                                                                  ",
"                                                                                                                                                                                                                                                                                                                                                                                                                                                                                                                                                                                                                                                                                                                                                                                                                                                                                                                                                                                                                                                                                                                                  ",
"                                                                                                                                                                                                                                                                                                                                                                                                                                                                                                                                                                                                                                                                                                                                                                                                                                                                                                                                                                                                                                                                                                                                  ",
"                                                                                                                                                                                                                                                                                                                                                                                                                                                                                                                                                                                                                                                                                                                                                                                                                                                                                                                                                                                                                                                                                                                                  ",
"                                                                                                                                                                                                                                                                                                                                                                                                                                                                                                                                                                                                                                                                                                                                                                                                                                                                                                                                                                                                                                                                                                                                  ",
"                                                                                                                                                                                                                                                                                                                                                                                                                                                                                                                                                                                                                                                                                                                                                                                                                                                                                                                                                                                                                                                                                                                                  ",
"                                                                                                                                                                                                                                                                                                                                                                                                                                                                                                                                                                                                                                                                                                                                                                                                                                                                                                                                                                                                                                                                                                                                  ",
"                                                                                                                                                                                                                                                                                                                                                                                                                                                                                                                                                                                                                                                                                                                                                                                                                                                                                                                                                                                                                                                                                                                                  ",
"                                                                                                                                                                                                                                                                                                                                                                                                                                                                                                                                                                                                                                                                                                                                                                                                                                                                                                                                                                                                                                                                                                                                  ",
"                                                                                                                                                                                                                                                                                                                                                                                                                                                                                                                                                                                                                                                                                                                                                                                                                                                                                                                                                                                                                                                                                                                                  ",
"                                                                                                                                                                                                                                                                                                                                                                                                                                                                                                                                                                                                                                                                                                                                                                                                                                                                                                                                                                                                                                                                                                                                  ",
"                                                                                                                                                                                                                                                                                                                                                                                                                                                                                                                                                                                                                                                                                                                                                                                                                                                                                                                                                                                                                                                                                                                                  ",
"                                                                                                                                                                                                                                                                                                                                                                                                                                                                                                                                                                                                                                                                                                                                                                                                                                                                                                                                                                                                                                                                                                                                  ",
"                                                                                                                                                                                                                                                                                                                                                                                                                                                                                                                                                                                                                                                                                                                                                                                                                                                                                                                                                                                                                                                                                                                                  ",
"                                                                                                                                                                                                                                                                                                                                                                                                                                                                                                                                                                                                                                                                                                                                                                                                                                                                                                                                                                                                                                                                                                                                  ",
"                                                                                                                                                                                                                                                                                                                                                                                                                                                                                                                                                                                                                                                                                                                                                                                                                                                                                                                                                                                                                                                                                                                                  ",
"                                                                                                                                                                                                                                                                                                                                                                                                                                                                                                                                                                                                                                                                                                                                                                                                                                                                                                                                                                                                                                                                                                                                  ",
"                                                                                                                                                                                                                                                                                                                                                                                                                                                                                                                                                                                                                                                                                                                                                                                                                                                                                                                                                                                                                                                                                                                                  ",
"                                                                                                                                                                                                                                                                                                                                                                                                                                                                                                                                                                                                                                                                                                                                                                                                                                                                                                                                                                                                                                                                                                                                  ",
"                                                                                                                                                                                                                                                                                                                                                                                                                                                                                                                                                                                                                                                                                                                                                                                                                                                                                                                                                                                                                                                                                                                                  ",
"                                                                                                                                                                                                                                                                                                                                                                                                                                                                                                                                                                                                                                                                                                                                                                                                                                                                                                                                                                                                                                                                                                                                  ",
"                                                                                                                                                                                                                                                                                                                                                                                                                                                                                                                                                                                                                                                                                                                                                                                                                                                                                                                                                                                                                                                                                                                                  ",
"                                                                                                                                                                                                                                                                                                                                                                                                                                                                                                                                                                                                                                                                                                                                                                                                                                                                                                                                                                                                                                                                                                                                  ",
"                                                                                                                                                                                                                                                                                                                                                                                                                                                                                                                                                                                                                                                                                                                                                                                                                                                                                                                                                                                                                                                                                                                                  ",
"                                                                                                                                                                                                                                                                                                                                                                                                                                                                                                                                                                                                                                                                                                                                                                                                                                                                                                                                                                                                                                                                                                                                  ",
"                                                                                                                                                                                                                                                                                                                                                                                                                                                                                                                                                                                                                                                                                                                                                                                                                                                                                                                                                                                                                                                                                                                                  ",
"                                                                                                                                                                                                                                                                                                                                                                                                                                                                                                                                                                                                                                                                                                                                                                                                                                                                                                                                                                                                                                                                                                                                  ",
"                                                                                                                                                                                                                                                                                                                                                                                                                                                                                                                                                                                                                                                                                                                                                                                                                                                                                                                                                                                                                                                                                                                                  ",
"                                                                                                                                                                                                                                                                                                                                                                                                                                                                                                                                                                                                                                                                                                                                                                                                                                                                                                                                                                                                                                                                                                                                  ",
"                                                                                                                                                                                                                                                                                                                                                                                                                                                                                                                                                                                                                                                                                                                                                                                                                                                                                                                                                                                                                                                                                                                                  ",
"                                                                                                                                                                                                                                                                                                                                                                                                                                                                                                                                                                                                                                                                                                                                                                                                                                                                                                                                                                                                                                                                                                                                  ",
"                                                                                                                                                                                                                                                                                                                                                                                                                                                                                                                                                                                                                                                                                                                                                                                                                                                                                                                                                                                                                                                                                                                                  ",
"                                                                                                                                                                                                                                                                                                                                                                                                                                                                                                                                                                                                                                                                                                                                                                                                                                                                                                                                                                                                                                                                                                                                  ",
"                                                                                                                                                                                                                                                                                                                                                                                                                                                                                                                                                                                                                                                                                                                                                                                                                                                                                                                                                                                                                                                                                                                                  ",
"                                                                                                                                                                                                                                                                                                                                                                                                                                                                                                                                                                                                                                                                                                                                                                                                                                                                                                                                                                                                                                                                                                                                  ",
"                                                                                                                                                                                                                                                                                                                                                                                                                                                                                                                                                                                                                                                                                                                                                                                                                                                                                                                                                                                                                                                                                                                                  ",
"                                                                                                                                                                                                                                                                                                                                                                                                                                                                                                                                                                                                                                                                                                                                                                                                                                                                                                                                                                                                                                                                                                                                  ",
"                                                                                                                                                                                                                                                                                                                                                                                                                                                                                                                                                                                                                                                                                                                                                                                                                                                                                                                                                                                                                                                                                                                                  ",
"                                                                                                                                                                                                                                                                                                                                                                                                                                                                                                                                                                                                                                                                                                                                                                                                                                                                                                                                                                                                                                                                                                                                  ",
"                                                                                                                                                                                                                                                                                                                                                                                                                                                                                                                                                                                                                                                                                                                                                                                                                                                                                                                                                                                                                                                                                                                                  ",
"                                                                                                                                                                                                                                                                                                                                                                                                                                                                                                                                                                                                                                                                                                                                                                                                                                                                                                                                                                                                                                                                                                                                  ",
"                                                                                                                                                                                                                                                                                                                                                                                                                                                                                                                                                                                                                                                                                                                                                                                                                                                                                                                                                                                                                                                                                                                                  ",
"                                                                                                                                                                                                                                                                                                                                                                                                                                                                                                                                                                                                                                                                                                                                                                                                                                                                                                                                                                                                                                                                                                                                  ",
"                                                                                                                                                                                                                                                                                                                                                                                                                                                                                                                                                                                                                                                                                                                                                                                                                                                                                                                                                                                                                                                                                                                                  ",
"                                                                                                                                                                                                                                                                                                                                                                                                                                                                                                                                                                                                                                                                                                                                                                                                                                                                                                                                                                                                                                                                                                                                  ",
"                                                                                                                                                                                                                                                                                                                                                                                                                                                                                                                                                                                                                                                                                                                                                                                                                                                                                                                                                                                                                                                                                                                                  ",
"                                                                                                                                                                                                                                                                                                                                                                                                                                                                                                                                                                                                                                                                                                                                                                                                                                                                                                                                                                                                                                                                                                                                  ",
"                                                                                                                                                                                                                                                                                                                                                                                                                                                                                                                                                                                                                                                                                                                                                                                                                                                                                                                                                                                                                                                                                                                                  ",
"                                                                                                                                                                                                                                                                                                                                                                                                                                                                                                                                                                                                                                                                                                                                                                                                                                                                                                                                                                                                                                                                                                                                  ",
"                                                                                                                                                                                                                                                                                                                                                                                                                                                                                                                                                                                                                                                                                                                                                                                                                                                                                                                                                                                                                                                                                                                                  ",
"                                                                                                                                                                                                                                                                                                                                                                                                                                                                                                                                                                                                                                                                                                                                                                                                                                                                                                                                                                                                                                                                                                                                  ",
"                                                                                                                                                                                                                                                                                                                                                                                                                                                                                                                                                                                                                                                                                                                                                                                                                                                                                                                                                                                                                                                                                                                                  ",
"                                                                                                                                                                                                                                                                                                                                                                                                                                                                                                                                                                                                                                                                                                                                                                                                                                                                                                                                                                                                                                                                                                                                  ",
"                                                                                                                                                                                                                                                                                                                                                                                                                                                                                                                                                                                                                                                                                                                                                                                                                                                                                                                                                                                                                                                                                                                                  ",
"                                                                                                                                                                                                                                                                                                                                                                                                                                                                                                                                                                                                                                                                                                                                                                                                                                                                                                                                                                                                                                                                                                                                  ",
"                                                                                                                                                                                                                                                                                                                                                                                                                                                                                                                                                                                                                                                                                                                                                                                                                                                                                                                                                                                                                                                                                                                                  ",
"                                                                                                                                                                                                                                                                                                                                                                                                                                                                                                                                                                                                                                                                                                                                                                                                                                                                                                                                                                                                                                                                                                                                  ",
"                                                                                                                                                                                                                                                                                                                                                                                                                                                                                                                                                                                                                                                                                                                                                                                                                                                                                                                                                                                                                                                                                                                                  ",
"                                                                                                                                                                                                                                                                                                                                                                                                                                                                                                                                                                                                                                                                                                                                                                                                                                                                                                                                                                                                                                                                                                                                  ",
"                                                                                                                                                                                                                                                                                                                                                                                                                                                                                                                                                                                                                                                                                                                                                                                                                                                                                                                                                                                                                                                                                                                                  ",
"                                                                                                                                                                                                                                                                                                                                                                                                                                                                                                                                                                                                                                                                                                                                                                                                                                                                                                                                                                                                                                                                                                                                  ",
"                                                                                                                                                                                                                                                                                                                                                                                                                                                                                                                                                                                                                                                                                                                                                                                                                                                                                                                                                                                                                                                                                                                                  ",
"                                                                                                                                                                                                                                                                                                                                                                                                                                                                                                                                                                                                                                                                                                                                                                                                                                                                                                                                                                                                                                                                                                                                  ",
"                                                                                                                                                                                                                                                                                                                                                                                                                                                                                                                                                                                                                                                                                                                                                                                                                                                                                                                                                                                                                                                                                                                                  ",
"                                                                                                                                                                                                                                                                                                                                                                                                                                                                                                                                                                                                                                                                                                                                                                                                                                                                                                                                                                                                                                                                                                                                  ",
"                                                                                                                                                                                                                                                                                                                                                                                                                                                                                                                                                                                                                                                                                                                                                                                                                                                                                                                                                                                                                                                                                                                                  ",
"                                                                                                                                                                                                                                                                                                                                                                                                                                                                                                                                                                                                                                                                                                                                                                                                                                                                                                                                                                                                                                                                                                                                  ",
"                                                                                                                                                                                                                                                                                                                                                                                                                                                                                                                                                                                                                                                                                                                                                                                                                                                                                                                                                                                                                                                                                                                                  ",
"                                                                                                                                                                                                                                                                                                                                                                                                                                                                                                                                                                                                                                                                                                                                                                                                                                                                                                                                                                                                                                                                                                                                  ",
"                                                                                                                                                                                                                                                                                                                                                                                                                                                                                                                                                                                                                                                                                                                                                                                                                                                                                                                                                                                                                                                                                                                                  ",
"                                                                                                                                                                                                                                                                                                                                                                                                                                                                                                                                                                                                                                                                                                                                                                                                                                                                                                                                                                                                                                                                                                                                  ",
"                                                                                                                                                                                                                                                                                                                                                                                                                                                                                                                                                                                                                                                                                                                                                                                                                                                                                                                                                                                                                                                                                                                                  ",
"                                                                                                                                                                                                                                                                                                                                                                                                                                                                                                                                                                                                                                                                                                                                                                                                                                                                                                                                                                                                                                                                                                                                  ",
"                                                                                                                                                                                                                                                                                                                                                                                                                                                                                                                                                                                                                                                                                                                                                                                                                                                                                                                                                                                                                                                                                                                                  ",
"                                                                                                                                                                                                                                                                                                                                                                                                                                                                                                                                                                                                                                                                                                                                                                                                                                                                                                                                                                                                                                                                                                                                  ",
"                                                                                                                                                                                                                                                                                                                                                                                                                                                                                                                                                                                                                                                                                                                                                                                                                                                                                                                                                                                                                                                                                                                                  ",
"                                                                                                                                                                                                                                                                                                                                                                                                                                                                                                                                                                                                                                                                                                                                                                                                                                                                                                                                                                                                                                                                                                                                  ",
"                                                                                                                                                                                                                                                                                                                                                                                                                                                                                                                                                                                                                                                                                                                                                                                                                                                                                                                                                                                                                                                                                                                                  ",
"                                                                                                                                                                                                                                                                                                                                                                                                                                                                                                                                                                                                                                                                                                                                                                                                                                                                                                                                                                                                                                                                                                                                  ",
"                                                                                                                                                                                                                                                                                                                                                                                                                                                                                                                                                                                                                                                                                                                                                                                                                                                                                                                                                                                                                                                                                                                                  ",
"                                                                                                                                                                                                                                                                                                                                                                                                                                                                                                                                                                                                                                                                                                                                                                                                                                                                                                                                                                                                                                                                                                                                  ",
"                                                                                                                                                                                                                                                                                                                                                                                                                                                                                                                                                                                                                                                                                                                                                                                                                                                                                                                                                                                                                                                                                                                                  ",
"                                                                                                                                                                                                                                                                                                                                                                                                                                                                                                                                                                                                                                                                                                                                                                                                                                                                                                                                                                                                                                                                                                                                  ",
"                                                                                                                                                                                                                                                                                                                                                                                                                                                                                                                                                                                                                                                                                                                                                                                                                                                                                                                                                                                                                                                                                                                                  ",
"                                                                                                                                                                                                                                                                                                                                                                                                                                                                                                                                                                                                                                                                                                                                                                                                                                                                                                                                                                                                                                                                                                                                  ",
"                                                                                                                                                                                                                                                                                                                                                                                                                                                                                                                                                                                                                                                                                                                                                                                                                                                                                                                                                                                                                                                                                                                                  ",
"                                                                                                                                                                                                                                                                                                                                                                                                                                                                                                                                                                                                                                                                                                                                                                                                                                                                                                                                                                                                                                                                                                                                  ",
"                                                                                                                                                                                                                                                                                                                                                                                                                                                                                                                                                                                                                                                                                                                                                                                                                                                                                                                                                                                                                                                                                                                                  ",
"                                                                                                                                                                                                                                                                                                                                                                                                                                                                                                                                                                                                                                                                                                                                                                                                                                                                                                                                                                                                                                                                                                                                  ",
"                                                                                                                                                                                                                                                                                                                                                                                                                                                                                                                                                                                                                                                                                                                                                                                                                                                                                                                                                                                                                                                                                                                                  ",
"                                                                                                                                                                                                                                                                                                                                                                                                                                                                                                                                                                                                                                                                                                                                                                                                                                                                                                                                                                                                                                                                                                                                  ",
"                                                                                                                                                                                                                                                                                                                                                                                                                                                                                                                                                                                                                                                                                                                                                                                                                                                                                                                                                                                                                                                                                                                                  ",
"                                                                                                                                                                                                                                                                                                                                                                                                                                                                                                                                                                                                                                                                                                                                                                                                                                                                                                                                                                                                                                                                                                                                  ",
"                                                                                                                                                                                                                                                                                                                                                                                                                                                                                                                                                                                                                                                                                                                                                                                                                                                                                                                                                                                                                                                                                                                                  ",
"                                                                                                                                                                                                                                                                                                                                                                                                                                                                                                                                                                                                                                                                                                                                                                                                                                                                                                                                                                                                                                                                                                                                  ",
"                                                                                                                                                                                                                                                                                                                                                                                                                                                                                                                                                                                                                                                                                                                                                                                                                                                                                                                                                                                                                                                                                                                                  ",
"                                                                                                                                                                                                                                                                                                                                                                                                                                                                                                                                                                                                                                                                                                                                                                                                                                                                                                                                                                                                                                                                                                                                  ",
"                                                                                                                                                                                                                                                                                                                                                                                                                                                                                                                                                                                                                                                                                                                                                                                                                                                                                                                                                                                                                                                                                                                                  ",
"                                                                                                                                                                                                                                                                                                                                                                                                                                                                                                                                                                                                                                                                                                                                                                                                                                                                                                                                                                                                                                                                                                                                  ",
"                                                                                                                                                                                                                                                                                                                                                                                                                                                                                                                                                                                                                                                                                                                                                                                                                                                                                                                                                                                                                                                                                                                                  ",
"                                                                                                                                                                                                                                                                                                                                                                                                                                                                                                                                                                                                                                                                                                                                                                                                                                                                                                                                                                                                                                                                                                                                  ",
"                                                                                                                                                                                                                                                                                                                                                                                                                                                                                                                                                                                                                                                                                                                                                                                                                                                                                                                                                                                                                                                                                                                                  ",
"                                                                                                                                                                                                                                                                                                                                                                                                                                                                                                                                                                                                                                                                                                                                                                                                                                                                                                                                                                                                                                                                                                                                  ",
"                                                                                                                                                                                                                                                                                                                                                                                                                                                                                                                                                                                                                                                                                                                                                                                                                                                                                                                                                                                                                                                                                                                                  ",
"                                                                                                                                                                                                                                                                                                                                                                                                                                                                                                                                                                                                                                                                                                                                                                                                                                                                                                                                                                                                                                                                                                                                  ",
"                                                                                                                                                                                                                                                                                                                                                                                                                                                                                                                                                                                                                                                                                                                                                                                                                                                                                                                                                                                                                                                                                                                                  ",
"                                                                                                                                                                                                                                                                                                                                                                                                                                                                                                                                                                                                                                                                                                                                                                                                                                                                                                                                                                                                                                                                                                                                  ",
"                                                                                                                                                                                                                                                                                                                                                                                                                                                                                                                                                                                                                                                                                                                                                                                                                                                                                                                                                                                                                                                                                                                                  ",
"                                                                                                                                                                                                                                                                                                                                                                                                                                                                                                                                                                                                                                                                                                                                                                                                                                                                                                                                                                                                                                                                                                                                  ",
"                                                                                                                                                                                                                                                                                                                                                                                                                                                                                                                                                                                                                                                                                                                                                                                                                                                                                                                                                                                                                                                                                                                                  ",
"                                                                                                                                                                                                                                                                                                                                                                                                                                                                                                                                                                                                                                                                                                                                                                                                                                                                                                                                                                                                                                                                                                                                  ",
"                                                                                                                                                                                                                                                                                                                                                                                                                                                                                                                                                                                                                                                                                                                                                                                                                                                                                                                                                                                                                                                                                                                                  ",
"                                                                                                                                                                                                                                                                                                                                                                                                                                                                                                                                                                                                                                                                                                                                                                                                                                                                                                                                                                                                                                                                                                                                  ",
"                                                                                                                                                                                                                                                                                                                                                                                                                                                                                                                                                                                                                                                                                                                                                                                                                                                                                                                                                                                                                                                                                                                                  ",
"                                                                                                                                                                                                                                                                                                                                                                                                                                                                                                                                                                                                                                                                                                                                                                                                                                                                                                                                                                                                                                                                                                                                  ",
"                                                                                                                                                                                                                                                                                                                                                                                                                                                                                                                                                                                                                                                                                                                                                                                                                                                                                                                                                                                                                                                                                                                                  ",
"                                                                                                                                                                                                                                                                                                                                                                                                                                                                                                                                                                                                                                                                                                                                                                                                                                                                                                                                                                                                                                                                                                                                  ",
"                                                                                                                                                                                                                                                                                                                                                                                                                                                                                                                                                                                                                                                                                                                                                                                                                                                                                                                                                                                                                                                                                                                                  ",
"                                                                                                                                                                                                                                                                                                                                                                                                                                                                                                                                                                                                                                                                                                                                                                                                                                                                                                                                                                                                                                                                                                                                  ",
"                                                                                                                                                                                                                                                                                                                                                                                                                                                                                                                                                                                                                                                                                                                                                                                                                                                                                                                                                                                                                                                                                                                                  ",
"                                                                                                                                                                                                                                                                                                                                                                                                                                                                                                                                                                                                                                                                                                                                                                                                                                                                                                                                                                                                                                                                                                                                  ",
"                                                                                                                                                                                                                                                                                                                                                                                                                                                                                                                                                                                                                                                                                                                                                                                                                                                                                                                                                                                                                                                                                                                                  ",
"                                                                                                                                                                                                                                                                                                                                                                                                                                                                                                                                                                                                                                                                                                                                                                                                                                                                                                                                                                                                                                                                                                                                  ",
"                                                                                                                                                                                                                                                                                                                                                                                                                                                                                                                                                                                                                                                                                                                                                                                                                                                                                                                                                                                                                                                                                                                                  ",
"                                                                                                                                                                                                                                                                                                                                                                                                                                                                                                                                                                                                                                                                                                                                                                                                                                                                                                                                                                                                                                                                                                                                  ",
"                                                                                                                                                                                                                                                                                                                                                                                                                                                                                                                                                                                                                                                                                                                                                                                                                                                                                                                                                                                                                                                                                                                                  ",
"                                                                                                                                                                                                                                                                                                                                                                                                                                                                                                                                                                                                                                                                                                                                                                                                                                                                                                                                                                                                                                                                                                                                  ",
"                                                                                                                                                                                                                                                                                                                                                                                                                                                                                                                                                                                                                                                                                                                                                                                                                                                                                                                                                                                                                                                                                                                                  ",
"                                                                                                                                                                                                                                                                                                                                                                                                                                                                                                                                                                                                                                                                                                                                                                                                                                                                                                                                                                                                                                                                                                                                  ",
"                                                                                                                                                                                                                                                                                                                                                                                                                                                                                                                                                                                                                                                                                                                                                                                                                                                                                                                                                                                                                                                                                                                                  ",
"                                                                                                                                                                                                                                                                                                                                                                                                                                                                                                                                                                                                                                                                                                                                                                                                                                                                                                                                                                                                                                                                                                                                  ",
"                                                                                                                                                                                                                                                                                                                                                                                                                                                                                                                                                                                                                                                                                                                                                                                                                                                                                                                                                                                                                                                                                                                                  ",
"                                                                                                                                                                                                                                                                                                                                                                                                                                                                                                                                                                                                                                                                                                                                                                                                                                                                                                                                                                                                                                                                                                                                  ",
"                                                                                                                                                                                                                                                                                                                                                                                                                                                                                                                                                                                                                                                                                                                                                                                                                                                                                                                                                                                                                                                                                                                                  ",
"                                                                                                                                                                                                                                                                                                                                                                                                                                                                                                                                                                                                                                                                                                                                                                                                                                                                                                                                                                                                                                                                                                                                  ",
"                                                                                                                                                                                                                                                                                                                                                                                                                                                                                                                                                                                                                                                                                                                                                                                                                                                                                                                                                                                                                                                                                                                                  ",
"                                                                                                                                                                                                                                                                                                                                                                                                                                                                                                                                                                                                                                                                                                                                                                                                                                                                                                                                                                                                                                                                                                                                  ",
"                                                                                                                                                                                                                                                                                                                                                                                                                                                                                                                                                                                                                                                                                                                                                                                                                                                                                                                                                                                                                                                                                                                                  ",
"                                                                                                                                                                                                                                                                                                                                                                                                                                                                                                                                                                                                                                                                                                                                                                                                                                                                                                                                                                                                                                                                                                                                  ",
"                                                                                                                                                                                                                                                                                                                                                                                                                                                                                                                                                                                                                                                                                                                                                                                                                                                                                                                                                                                                                                                                                                                                  ",
"                                                                                                                                                                                                                                                                                                                                                                                                                                                                                                                                                                                                                                                                                                                                                                                                                                                                                                                                                                                                                                                                                                                                  ",
"                                                                                                                                                                                                                                                                                                                                                                                                                                                                                                                                                                                                                                                                                                                                                                                                                                                                                                                                                                                                                                                                                                                                  ",
"                                                                                                                                                                                                                                                                                                                                                                                                                                                                                                                                                                                                                                                                                                                                                                                                                                                                                                                                                                                                                                                                                                                                  ",
"                                                                                                                                                                                                                                                                                                                                                                                                                                                                                                                                                                                                                                                                                                                                                                                                                                                                                                                                                                                                                                                                                                                                  ",
"                                                                                                                                                                                                                                                                                                                                                                                                                                                                                                                                                                                                                                                                                                                                                                                                                                                                                                                                                                                                                                                                                                                                  ",
"                                                                                                                                                                                                                                                                                                                                                                                                                                                                                                                                                                                                                                                                                                                                                                                                                                                                                                                                                                                                                                                                                                                                  ",
"                                                                                                                                                                                                                                                                                                                                                                                                                                                                                                                                                                                                                                                                                                                                                                                                                                                                                                                                                                                                                                                                                                                                  ",
"                                                                                                                                                                                                                                                                                                                                                                                                                                                                                                                                                                                                                                                                                                                                                                                                                                                                                                                                                                                                                                                                                                                                  ",
"                                                                                                                                                                                                                                                                                                                                                                                                                                                                                                                                                                                                                                                                                                                                                                                                                                                                                                                                                                                                                                                                                                                                  ",
"                                                                                                                                                                                                                                                                                                                                                                                                                                                                                                                                                                                                                                                                                                                                                                                                                                                                                                                                                                                                                                                                                                                                  ",
"                                                                                                                                                                                                                                                                                                                                                                                                                                                                                                                                                                                                                                                                                                                                                                                                                                                                                                                                                                                                                                                                                                                                  ",
"                                                                                                                                                                                                                                                                                                                                                                                                                                                                                                                                                                                                                                                                                                                                                                                                                                                                                                                                                                                                                                                                                                                                  ",
"                                                                                                                                                                                                                                                                                                                                                                                                                                                                                                                                                                                                                                                                                                                                                                                                                                                                                                                                                                                                                                                                                                                                  ",
"                                                                                                                                                                                                                                                                                                                                                                                                                                                                                                                                                                                                                                                                                                                                                                                                                                                                                                                                                                                                                                                                                                                                  ",
"                                                                                                                                                                                                                                                                                                                                                                                                                                                                                                                                                                                                                                                                                                                                                                                                                                                                                                                                                                                                                                                                                                                                  ",
"                                                                                                                                                                                                                                                                                                                                                                                                                                                                                                                                                                                                                                                                                                                                                                                                                                                                                                                                                                                                                                                                                                                                  ",
"                                                                                                                                                                                                                                                                                                                                                                                                                                                                                                                                                                                                                                                                                                                                                                                                                                                                                                                                                                                                                                                                                                                                  ",
"                                                                                                                                                                                                                                                                                                                                                                                                                                                                                                                                                                                                                                                                                                                                                                                                                                                                                                                                                                                                                                                                                                                                  ",
"                                                                                                                                                                                                                                                                                                                                                                                                                                                                                                                                                                                                                                                                                                                                                                                                                                                                                                                                                                                                                                                                                                                                  ",
"                                                                                                                                                                                                                                                                                                                                                                                                                                                                                                                                                                                                                                                                                                                                                                                                                                                                                                                                                                                                                                                                                                                                  ",
"                                                                                                                                                                                                                                                                                                                                                                                                                                                                                                                                                                                                                                                                                                                                                                                                                                                                                                                                                                                                                                                                                                                                  ",
"                                                                                                                                                                                                                                                                                                                                                                                                                                                                                                                                                                                                                                                                                                                                                                                                                                                                                                                                                                                                                                                                                                                                  ",
"                                                                                                                                                                                                                                                                                                                                                                                                                                                                                                                                                                                                                                                                                                                                                                                                                                                                                                                                                                                                                                                                                                                                  ",
"                                                                                                                                                                                                                                                                                                                                                                                                                                                                                                                                                                                                                                                                                                                                                                                                                                                                                                                                                                                                                                                                                                                                  ",
"                                                                                                                                                                                                                                                                                                                                                                                                                                                                                                                                                                                                                                                                                                                                                                                                                                                                                                                                                                                                                                                                                                                                  ",
"                                                                                                                                                                                                                                                                                                                                                                                                                                                                                                                                                                                                                                                                                                                                                                                                                                                                                                                                                                                                                                                                                                                                  ",
"                                                                                                                                                                                                                                                                                                                                                                                                                                                                                                                                                                                                                                                                                                                                                                                                                                                                                                                                                                                                                                                                                                                                  ",
"                                                                                                                                                                                                                                                                                                                                                                                                                                                                                                                                                                                                                                                                                                                                                                                                                                                                                                                                                                                                                                                                                                                                  ",
"                                                                                                                                                                                                                                                                                                                                                                                                                                                                                                                                                                                                                                                                                                                                                                                                                                                                                                                                                                                                                                                                                                                                  ",
"                                                                                                                                                                                                                                                                                                                                                                                                                                                                                                                                                                                                                                                                                                                                                                                                                                                                                                                                                                                                                                                                                                                                  ",
"                                                                                                                                                                                                                                                                                                                                                                                                                                                                                                                                                                                                                                                                                                                                                                                                                                                                                                                                                                                                                                                                                                                                  ",
"                                                                                                                                                                                                                                                                                                                                                                                                                                                                                                                                                                                                                                                                                                                                                                                                                                                                                                                                                                                                                                                                                                                                  ",
"                                                                                                                                                                                                                                                                                                                                                                                                                                                                                                                                                                                                                                                                                                                                                                                                                                                                                                                                                                                                                                                                                                                                  ",
"                                                                                                                                                                                                                                                                                                                                                                                                                                                                                                                                                                                                                                                                                                                                                                                                                                                                                                                                                                                                                                                                                                                                  ",
"                                                                                                                                                                                                                                                                                                                                                                                                                                                                                                                                                                                                                                                                                                                                                                                                                                                                                                                                                                                                                                                                                                                                  ",
"                                                                                                                                                                                                                                                                                                                                                                                                                                                                                                                                                                                                                                                                                                                                                                                                                                                                                                                                                                                                                                                                                                                                  ",
"                                                                                                                                                                                                                                                                                                                                                                                                                                                                                                         $&                                                                                                                                                                                                                                                                                                                                                                                                                                                                                                                                                                                                                       ",
"                                                                                                                                                                                                                                                                                                                                                                                                                                                                                                         ==                                                                                                                                                                                                                                                                                                                                                                                                                                                                                                                                                                                                                       ",
"                                                                                                                                                                                                                                                                                                                                                                                                                                                                                                       =;>>&                                                                                                                                                                                                                                                                                                                                                                                                                                                                                                                                                                                                                      ",
"                                                                                                                                                                                                                                                                                                                                                                                                                                                                                                     =;>;;>;                                                                                                                                                                                                                                                                                                                                                                                                                                                                                                                                                                                                                      ",
"                                                                                                                                                                                                                                                                                                                                                                                                                                                                                                    =>;;==>>&                                                                                                                                                                                                                                                                                                                                                                                                                                                                                                                                                                                                                     ",
"                                                                                                                                                                                                                                                                                                                                                                                                                                                                                                     ;;=$$;>;;;;=======                                                                                                                                                                                                                                                                                                                                                                                                                                                                                                                                                                                                           ",
"                                                                                                                                                                                                                                                                                                                                                                                                                                                                                                     ;>=$$=>>>>>>>>>>>;;&&$                                                                                                                                                                                                                                                                                                                                                                                                                                                                                                                                                                                                       ",
"                                                                                                                                                                                                                                                                                                                                                                                                                                                                                                     =>;;>>>>>>;>>;>>;>>>>>;=                                                                                                                                                                                                                                                                                                                                                                                                                                                                                                                                                                                                     ",
"                                                                                                                                                                                                                                                                                                                                                                                                                                                                                                      =>>;>;>;====;===;>>>>>;;=                                                                                                                                                                                                                                                                                                                                                                                                                                                                                                                                                                                                   ",
"                                                                                                                                                                                                                                                                                                                                                                                                                                                                                                     ;=>>>;>>>=><<<<<<<;=&;;>>;;=&$                                                                                                                                                                                                                                                                                                                                                                                                                                                                                                                                                                                               ",
"                                                                                                                                                                                                                                                                                                                                                                                                                                                                                                    ;;>>>>>>==<<<<<<<<<<<<<>=;>>>>;=                                                                                                                                                                                                                                                                                                                                                                                                                                                                                                                                                                                              ",
"                                                                                                                                                                                                                                                                                                                                                                                                                                                                                                    ;>;;>;==<<<<<<<<<<<<<<<<<>;;;>>>@                                                                                                                                                                                                                                                                                                                                                                                                                                                                                                                                                                                             ",
"                                                                                                                                                                                                                                                                                                                                                                                                                                                                                                  =;;;>;==<<<<<<<<2<<<<<<<<<<<<>;>>>$                                                                                                                                                                                                                                                                                                                                                                                                                                                                                                                                                                                             ",
"                                                                                                                                                                                                                                                                                                                                                                                                                                                                                                  ==>;>>;;<<<<<<<<<<<2<<2<<<<<<>;;;>$                                                                                                                                                                                                                                                                                                                                                                                                                                                                                                                                                                                             ",
"                                                                                                                                                                                                                                                                                                                                                                                                                                                                                                 ;;;;;><<<<<<<<2<<<<<<<<<<<<<<<<>=>>=                                                                                                                                                                                                                                                                                                                                                                                                                                                                                                                                                                                             ",
"                                                                                                                                                                                                                                                                                                                                                                                                                                                                                                 =>;;<<<<<<<<<<<<<<<<<<<<<<<2<<<>;;>;                                                                                                                                                                                                                                                                                                                                                                                                                                                                                                                                                                                             ",
"                                                                                                                                                                                                                                                                                                                                                                                                                                                                                                =>>;><<<2<<2<<<<<2<<2<<2<<<<<<<2<<=>>$                                                                                                                                                                                                                                                                                                                                                                                                                                                                                                                                                                                            ",
"                                                                                                                                                                                                                                                                                                                                                                                                                                                                                               ;;>;;><<<<<<<<<2<<<<<<<<<<<2<<<<<<<=>>&                                                                                                                                                                                                                                                                                                                                                                                                                                                                                                                                                                                            ",
"                                                                                                                                                                                                                                                                                                                                                                                                                                                                                               &>>=><<<<<<<<<<<<<<<<<<<<<<<<<2<<<<=>>=                                                                                                                                                                                                                                                                                                                                                                                                                                                                                                                                                                                            ",
"                                                                                                                                                                                                                                                                                                                                                                                                                                                                                              &>>=<<<<<<<2<<2<<<<<2<<2<<2<<<<<<<<<<;>>@                                                                                                                                                                                                                                                                                                                                                                                                                                                                                                                                                                                           ",
"                                                                                                                                                                                                                                                                                                                                                                                                                                                                                              &>>=<<<2<<<<<<<<<2<<<<<<<<<<<2<<<<<<<=>>$                                                                                                                                                                                                                                                                                                                                                                                                                                                                                                                                                                                           ",
"                                                                                                                                                                                                                                                                                                                                                                                                                                                                                             @>>=<<<<<<<<<<<<<<<<<<<<<<<<<<<<<<2<<<=;>&                                                                                                                                                                                                                                                                                                                                                                                                                                                                                                                                                                                           ",
"                                                                                                                                                                                                                                                                                                                                                                                                                                                                                             $>>=<<<<<<2<<2<<2<<<<2<<2<<2<<<<<<<<<<=>>;                                                                                                                                                                                                                                                                                                                                                                                                                                                                                                                                                                                           ",
"                                                                                                                                                                                                                                                                                                                                                                                                                                                                                             $;>;<<<2<<<<<<<<<<<<<<<<<<<<<<<<2<<<<<<;>;=                                                                                                                                                                                                                                                                                                                                                                                                                                                                                                                                                                                          ",
"                                                                                                                                                                                                                                                                                                                                                                                                                                                                                             $>=<<<<<<<<<<<<<<<2<<<<<<<<<<2<<<<<2<<<=>>=                                                                                                                                                                                                                                                                                                                                                                                                                                                                                                                                                                                          ",
"                                                                                                                                                                                                                                                                                                                                                                                                                                                                                             &>;><<<<<2<<2<<2<<<<<<<2<<2<<<<<<<<<<<<=>>=                                                                                                                                                                                                                                                                                                                                                                                                                                                                                                                                                                                          ",
"                                                                                                                                                                                                                                                                                                                                                                                                                                                                                             $>;><<<<<<<<<<<<<<<<<<<<<<<<<<<2<<<<<<<;;>=                                                                                                                                                                                                                                                                                                                                                                                                                                                                                                                                                                                          ",
"                                                                                                                                                                                                                                                                                                                                                                                                                                                                                             &>;<<<<2<<<<<<<<<<2<<2<<<<<<2<<<<<<<2<<<=>;                                                                                                                                                                                                                                                                                                                                                                                                                                                                                                                                                                                          ",
"                                                                                                                                                                                                                                                                                                                                                                                                                                                                                             &>><<<<<<<2<<2<<<<<<<<<<2<<<<<<<<2<<<<<<=>>=                                                                                                                                                                                                                                                                                                                                                                                                                                                                                                                                                                                         ",
"                                                                                                                                                                                                                                                                                                                                                                                                                                                                                             &>><<<<<<<<<<<<<<<<<<<<<<<<<<<2<<<<<<<<<=>>;                                                                                                                                                                                                                                                                                                                                                                                                                                                                                                                                                                                         ",
"                                                                                                                                                                                                                                                                                                                                                                                                                                                                                             &>><<2<<2<<<<<<2<<2<<2<<<<2<<<<<<<<2<<2<=>>;                                                                                                                                                                                                                                                                                                                                                                                                                                                                                                                                                                                         ",
"                                                                                                                                                                                                                                                                                                                                                                                                                                                                                             =>><<<<<<<<<2<<<<<<<<<<<<<<<<<<<2<<<<<<<<;;>&                                                                                                                                                                                                                                                                                                                                                                                                                                                                                                                                                                                        ",
"                                                                                                                                                                                                                                                                                                                                                                                                                                                                                             =>><<<<<<<<<<<<<<<<<<<<2<<<<2<<<<<<<<<<<<=;>=                                                                                                                                                                                                                                                                                                                                                                                                                                                                                                                                                                                        ",
"                                                                                                                                                                                                                                                                                                                                                                                                                                                                                             ;>><<<2<<2<<<<2<<2<<2<<<<;=====;<<<<2<<<<=;>=                                                                                                                                                                                                                                                                                                                                                                                                                                                                                                                                                                                        ",
"                                                                                                                                                                                                                                                                                                                                                                                                                                                                                            $;>;<<<<<<<<<<<<<<<<<>;===>>>>>>>;;===<<<<<>;;                                                                                                                                                                                                                                                                                                                                                                                                                                                                                                                                                                                        ",
"                                                                                                                                                                                                                                                                                                                                                                                                                                                                                             =>;<<<<<<<<<2<<<<<>=;>>>>>>>>>>>>>>>>;=<<<;;>&                                                                                                                                                                                                                                                                                                                                                                                                                                                                                                                                                                                       ",
"                                                                                                                                                                                                                                                                                                                                                                                                                                                                                            @>>;<<2<<2<<<<<<2==;>>>>>>=&$$$$&=;>>>>>==<>;>=                                                                                                                                                                                                                                                                                                                                                                                                                                                                                                                                                                                       ",
"                                                                                                                                                                                                                                                                                                                                                                                                                                                                                            @>>;<<<<<<<<<<<<;;;;>;;===&&&$$$$&===;;>;=>==>;                                                                                                                                                                                                                                                                                                                                                                                                                                                                                                                                                                                       ",
"                                                                                                                                                                                                                                                                                                                                                                                                                                                                                            @>>=<<<<<<<2<<<;;>;;==&&$$&&$&&&&&$$&==;>>;==;;                                                                                                                                                                                                                                                                                                                                                                                                                                                                                                                                                                                       ",
"                                                                                                                                                                                                                                                                                                                                                                                                                                                                                            @>>;<<<<2<<<<>;;>;==&&&&&$&&&&$$&$&&&&$&=;>>;;>=                                                                                                                                                                                                                                                                                                                                                                                                                                                                                                                                                                                      ",
"                                                                                                                                                                                                                                                                                                                                                                                                                                                                                            @>>=<<<<<<<>;;;>;&&&$$$&&==;;===&&$&$&&&$&;;>>>=                                                                                                                                                                                                                                                                                                                                                                                                                                                                                                                                                                                      ",
"                                                                                                                                                                                                                                                                                                                                                                                                                                                                                            $>>=<2<<<<;;;>>;&$&$&===;>>>>>>;;==&&$&$&&&=;>>;                                                                                                                                                                                                                                                                                                                                                                                                                                                                                                                                                                                      ",
"                                                                                                                                                                                                                                                                                                                                                                                                                                                                                            @>>=<<<<<>;>>;>=$&&$&=>>>>>;>>>>>>;&&&$&&$&&;>;;                                                                                                                                                                                                                                                                                                                                                                                                                                                                                                                                                                                      ",
"                                                                                                                                                                                                                                                                                                                                                                                                                                                                                            $>>=<<<<<;;>>>=$&&&=>>>>;=;<3;==;>;>;=$&&$&&&;>>=@                                                                                                                                                                                                                                                                                                                                                                                                                                                                                                                                                                                    ",
"                                                                                                                                                                                                                                                                                                                                                                                                                                                                                            $;>=<<<<<>;;==&$&&;>>;;>599999996<;>>>=&$&$&$&;>=$                                                                                                                                                                                                                                                                                                                                                                                                                                                                                                                                                                                    ",
"                                                                                                                                                                                                                                                                                                                                                                                                                                                                                            $>>=<<2<<;;>=$&$&>>;;49999999999996<;>>>=&&$&&=>;=                                                                                                                                                                                                                                                                                                                                                                                                                                                                                                                                                                                    ",
"                                                                                                                                                                                                                                                                                                                                                                                                                                                                                            $>>=<<<<<<>>=&&>>;=38999999999653<>;;;>;>=&$&&&;>>@                                                                                                                                                                                                                                                                                                                                                                                                                                                                                                                                                                                   ",
"                                                                                                                                                                                                                                                                                                                                                                                                                                                                                            $>>=<<<<<<>;;;>;>;9999999994<=>>>;>>;>;;>>=&&$&=>>$                                                                                                                                                                                                                                                                                                                                                                                                                                                                                                                                                                                   ",
"                                                                                                                                                                                                                                                                                                                                                                                                                                                                                            $>;=<<2<<<>;>>;>=99999962<=>>>>>;>>;>>>>;>>>;&&=>;&                                                                                                                                                                                                                                                                                                                                                                                                                                                                                                                                                                                   ",
"                                                                                                                                                                                                                                                                                                                                                                                                                                                                                            $>>=<<<<<<>;>>>;49999753<>;>>>;;;>2<>;;;>>>>;=&=;>&                                                                                                                                                                                                                                                                                                                                                                                                                                                                                                                                                                                   ",
"                                                                                                                                                                                                                                                                                                                                                                                                                                                                                            $>>=<<<<<<>;;>;4999752>;>>;;=;>;;<22<>>;;>;>>;&&=>;                                                                                                                                                                                                                                                                                                                                                                                                                                                                                                                                                                                   ",
"                                                                                                                                                                                                                                                                                                                                                                                                                                                                                            $>>=<<<<<<;=>>>99643>>>;;;>;;><<<<<<<<<>>;;;>>==;>>$                                                                                                                                                                                                                                                                                                                                                                                                                                                                                                                                                                                  ",
"                                                                                                                                                                                                                                                                                                                                                                                                                                                                                            $>>=<<<2<<>;>;<64<;;>;;;;><<<<<<<<<<<<<<<>>;;>;;>>>&                                                                                                                                                                                                                                                                                                                                                                                                                                                                                                                                                                                  ",
"                                                                                                                                                                                                                                                                                                                                                                                                                                                                                            $;>=<<<<<<;;>>;<;>>;;;>><<<<<<<<<<<<<<<<<<<<;;>>;;>;                                                                                                                                                                                                                                                                                                                                                                                                                                                                                                                                                                                  ",
"                                                                                                                                                                                                                                                                                                                                                                                                                                                                                            $>>=<<<<<<>;;>;>>>>;=;<<<<<<<<<<2<<2<<<<<<<<>;>>;;>>@                                                                                                                                                                                                                                                                                                                                                                                                                                                                                                                                                                                 ",
"                                                                                                                                                                                                                                                                                                                                                                                                                                                                                            &>>=<<2<<<>;>>>>>==><<<<<<<<<2<<<<<<<<2<<<<<<>;>>;>>$                                                                                                                                                                                                                                                                                                                                                                                                                                                                                                                                                                                 ",
"                                                                                                                                                                                                                                                                                                                                                                                                                                                                                            &>;=<<<<<<>;>;>>=<<<<<<2<<2<<<<<<<<<<<<<<<<<<<>;>>;>&                                                                                                                                                                                                                                                                                                                                                                                                                                                                                                                                                                                 ",
"                                                                                                                                                                                                                                                                                                                                                                                                                                                                                            $>>=<<<<<<>;>>==<<<<<<<<<<<<<<<<<2<<2<<<<2<<<<<;;;>>=                                                                                                                                                                                                                                                                                                                                                                                                                                                                                                                                                                                 ",
"                                                                                                                                                                                                                                                                                                                                                                                                                                                                                            &>>=<<<<<<<>==<<<<<<<<<<<<<<<2<<<<<<<<<<<<<<<<<<>;;>>@                                                                                                                                                                                                                                                                                                                                                                                                                                                                                                                                                                                ",
"                                                                                                                                                                                                                                                                                                                                                                                                                                                                                            &;>=<<<<2<<<<<<<<<<<<<<2<<2<<<<<<<<<>==2<<<<<<<<<<=>;&                                                                                                                                                                                                                                                                                                                                                                                                                                                                                                                                                                                ",
"                                                                                                                                                                                                                                                                                                                                                                                                                                                                                            &>>=<<<<<<<<<<<<<<<<2<<<<<<<>;;;====;>>==<2<<<<<<<=>>=                                                                                                                                                                                                                                                                                                                                                                                                                                                                                                                                                                                ",
"                                                                                                                                                                                                                                                                                                                                                                                                                                                                                            &>>=<<<<<<<<<<<<<<<<<<<<<>>>>>;;;;;;;>>;;>>><2<<<<;;>;                                                                                                                                                                                                                                                                                                                                                                                                                                                                                                                                                                                ",
"                                                                                                                                                                                                                                                                                                                                                                                                                                                                                            &;>=<<2<<2<<<<<<2<<<<<<>;;;;>>>>>>>>>>;>>;;><<<<<<<=>>$                                                                                                                                                                                                                                                                                                                                                                                                                                                                                                                                                                               ",
"                                                                                                                                                                                                                                                                                                                                                                                                                                                                                            &>>=<<<<<<<<<<<<<<<<<>;;;>>>;=====;;>>;=;>>;><<<<<<=>>$                                                                                                                                                                                                                                                                                                                                                                                                                                                                                                                                                                               ",
"                                                                                                                                                                                                                                                                                                                                                                                                                                                                                            &>>=<<<<<<<2<<2<<<<<;;;>;;==&&$$$&&=;>>&&>>;;<<2<<<=>>=                                                                                                                                                                                                                                                                                                                                                                                                                                                                                                                                                                               ",
"                                                                                                                                                                                                                                                                                                                                                                                                                                                                                            =>>;<<<<2<<<<<<<<>>;;>>;=&&$$&&$&&&&=;>;=;>;><<<<<<>;>;                                                                                                                                                                                                                                                                                                                                                                                                                                                                                                                                                                               ",
"                                                                                                                                                                                                                                                                                                                                                                                                                                                                                            =>>=<<<<<<<<<<<>;;;;>>>=&&&&&$&==&&&&&;>;=>;><<<<<<<=>>=                                                                                                                                                                                                                                                                                                                                                                                                                                                                                                                                                                              ",
"                                                                                                                                                                                                                                                                                                                                                                                                                                                                                            =;>;<<2<<<<<2<<=&>>>>>>=$&$&&$&=;&$$&$=>>&>>><<<<<<<=>>=                                                                                                                                                                                                                                                                                                                                                                                                                                                                                                                                                                              ",
"                                                                                                                                                                                                                                                                                                                                                                                                                                                                                            =>>;<<<<>=><<<=>>>;=&;>;=&$&$>>>>>;&&&&>>=>>;><<<2<<=>;;                                                                                                                                                                                                                                                                                                                                                                                                                                                                                                                                                                              ",
"                                                                                                                                                                                                                                                                                                                                                                                                                                                                                            =>>;<<;=;>;===>>>=&&&&;>=$&&&>>;;>>=&$&=;>>>;;<<<<<<<;>>=                                                                                                                                                                                                                                                                                                                                                                                                                                                                                                                                                                             ",
"                                                                                                                                                                                                                                                                                                                                                                                                                                                                                            =>>;<=>>>>;;>>;=&$$&&$=>;=&$&>>;;>;=&$&&>>;>;;<<<<<<<=>;=                                                                                                                                                                                                                                                                                                                                                                                                                                                                                                                                                                             ",
"                                                                                                                                                                                                                                                                                                                                                                                                                                                                                            =>>;&>>>>>>>>>=$$&&$&$&;>>&&$>>;>>;&$&&$>>>>;><2<<<<<=>>=                                                                                                                                                                                                                                                                                                                                                                                                                                                                                                                                                                             ",
"                                                                                                                                                                                                                                                                                                                                                                                                                                                                                            =>>>>>;=&;>=&&&&&$&$&;>>;>&$&=>>;;&&&$&$=>>;>>><<<<<<=>>;                                                                                                                                                                                                                                                                                                                                                                                                                                                                                                                                                                             ",
"                                                                                                                                                                                                                                                                                                                                                                                                                                                                                            ;>>>>;=&&=>;=&$&&$&&=;>;==&$&&====&&$&&&&;>>>;><<<<<<>;;;                                                                                                                                                                                                                                                                                                                                                                                                                                                                                                                                                                             ",
"                                                                                                                                                                                                                                                                                                                                                                                                                                                                                            ;;>;;&&&&=;>=&&$&=;;>;==&&$&&$$&&$&$&$&&&;>>>;><<2<<<<=;>=                                                                                                                                                                                                                                                                                                                                                                                                                                                                                                                                                                            ",
"                                                                                                                                                                                                                                                                                                                                                                                                                                                                                            ;>>;&&&$&&=;;;&==>>;==&&&$&&$&&$$&&&&&$$&&;>;;><<<<<<<=;>;                                                                                                                                                                                                                                                                                                                                                                                                                                                                                                                                                                            ",
"                                                                                                                                                                                                                                                                                                                                                                                                                                                                                            ;>>&&===&$&=>>;>>;==&&$&$&&$$&&===;;;===&&>>>;><<<<<<<>;;;                                                                                                                                                                                                                                                                                                                                                                                                                                                                                                                                                                            ",
"                                                                                                                                                                                                                                                                                                                                                                                                                                                                                           =>>>&=>>;;=$&;>>;=&$&&$&$&$&===;;>>>>>>>>=;>>>;;><<<2<<<>;>=                                                                                                                                                                                                                                                                                                                                                                                                                                                                                                                                                                           ",
"                                                                                                                                                                                                                                                                                                                                                                                                                                                                                           =>;>;>>;;>=&&&==&&&&$&$&&==;>>>>;;;;;;;=;>>>;>>;><<<<<<<>;>=                                                                                                                                                                                                                                                                                                                                                                                                                                                                                                                                                                           ",
"                                                                                                                                                                                                                                                                                                                                                                                                                                                                                           ;;>>>;>=;>=&$&$&&$&$&&$&;>>>>>>>;===;===;>>;>>>;;<<<<<<<;;>=                                                                                                                                                                                                                                                                                                                                                                                                                                                                                                                                                                           ",
"                                                                                                                                                                                                                                                                                                                                                                                                                                                                                           ;>>;>>&=;>=&&&&$&&$$$&;>>;>>=&==><<<<<<<<;=;;>;;><<2<<<<>;>;                                                                                                                                                                                                                                                                                                                                                                                                                                                                                                                                                                           ",
"                                                                                                                                                                                                                                                                                                                                                                                                                                                                                           =>;>>>>>>>=$&$&$&$&>>>>;>;==<<<<<<<<<<<<<<<<;=;><<<<<<<<<>;>=                                                                                                                                                                                                                                                                                                                                                                                                                                                                                                                                                                          ",
"                                                                                                                                                                                                                                                                                                                                                                                                                                                                                           =>>>=>;>;;&&&$&$&>>>>>;==;<<<<>;====;====;><<<<<<2<<<<2<<;;>=                                                                                                                                                                                                                                                                                                                                                                                                                                                                                                                                                                          ",
"                                                                                                                                                                                                                                                                                                                                                                                                                                                                                           &>>>&$&&&$&&$&&>>>>>;=;<<>;===>>>>>>>>>>>>>;;===><<<<<<<<>;>=                                                                                                                                                                                                                                                                                                                                                                                                                                                                                                                                                                          ",
"                                                                                                                                                                                                                                                                                                                                                                                                                                                                                            ;;>$&&&&$&$&=>>;===;<>;=;>>>>;>;>>>>>>>;>>>>>>>;==<<<<<<<>;;                                                                                                                                                                                                                                                                                                                                                                                                                                                                                                                                                                          ",
"                                                                                                                                                                                                                                                                                                                                                                                                                                                                                            =>>&&$&$&&&=;>>;>;;>>;;;;>>>>;;;;;;;;;;;;;;>;>>;;;>>2<<<<>;;                                                                                                                                                                                                                                                                                                                                                                                                                                                                                                                                                                          ",
"                                                                                                                                                                                                                                                                                                                                                                                                                                                                                            &>>;$&$&&&;>;;=;<>;;;;>>;;;=;>;;;>>>>>;;;>>;;;;>>>;;><<<<>;>=$                                                                                                                                                                                                                                                                                                                                                                                                                                                                                                                                                                        ",
"                                                                                                                                                                                                                                                                                                                                                                                                                                                                                            &;>>&$&&&;>;;;;<;;;;>;;;;>;;><<<<<>>><<<<<>>;>>;;;>>;><<<;;>;=                                                                                                                                                                                                                                                                                                                                                                                                                                                                                                                                                                        ",
"                                                                                                                                                                                                                                                                                                                                                                                                                                                                                            $>;>;&&&;>;;><>>;>>;;;>;><<<<<<<>;;;>><<<<<<<<<>>>;;>;>><<;;;;                                                                                                                                                                                                                                                                                                                                                                                                                                                                                                                                                                        ",
"                                                                                                                                                                                                                                                                                                                                                                                                                                                                                            $>;;>=;;>;;>>;;;>>;;>><<<<<<>;>;;;;>;;<<2<<<<<<<<<;;>>;;><>;>>$                                                                                                                                                                                                                                                                                                                                                                                                                                                                                                                                                                       ",
"                                                                                                                                                                                                                                                                                                                                                                                                                                                                                            &>;=>>>>;;><;;>>;;;><<<<<2>>;;;;>>>>;=<<<<<<<<<<<<<>;;>>;>>;>;$                                                                                                                                                                                                                                                                                                                                                                                                                                                                                                                                                                       ",
"                                                                                                                                                                                                                                                                                                                                                                                                                                                                                            &>>&>;>>;><;;>>;==<<<<<<<<==>>>>>>>>;=<<<<<2<<<<<<<<;;>>;>;;;>&                                                                                                                                                                                                                                                                                                                                                                                                                                                                                                                                                                       ",
"                                                                                                                                                                                                                                                                                                                                                                                                                                                                                            &>><=>>;><;;>>>=<<<<2<>===>;>>;=&=;>;=<<2<<<<<<<<<<<<=>>>;>;;>;                                                                                                                                                                                                                                                                                                                                                                                                                                                                                                                                                                       ",
"                                                                                                                                                                                                                                                                                                                                                                                                                                                                                            &>;<<==;<;;>>>=<<<<>==;>>>>>=&&$&$=>;;<<<<<<<<2<<<<<<<=;;>;=;>>@                                                                                                                                                                                                                                                                                                                                                                                                                                                                                                                                                                      ",
"                                                                                                                                                                                                                                                                                                                                                                                                                                                                                            =>;<<<<<;;>>;=<<<==;>>>>;=&$&&$&&&&;>>;<<<<<<<<<<2<<<<<>;>>;;;>$                                                                                                                                                                                                                                                                                                                                                                                                                                                                                                                                                                      ",
"                                                                                                                                                                                                                                                                                                                                                                                                                                                                                            ;>;<<<<>;>>;;<<<=>>>>>;&$$&$&$&$&$&=>>;<<<<<2<<<<<<<<<<<;;>;;>>=                                                                                                                                                                                                                                                                                                                                                                                                                                                                                                                                                                      ",
"                                                                                                                                                                                                                                                                                                                                                                                                                                                                                           &>>=<<<<>;>;;<<<<=>>;&&$&&&$&&&$$&&$&=>>;<<<<<<<2<<<<<<<<<>;>;;>>@                                                                                                                                                                                                                                                                                                                                                                                                                                                                                                                                                                     ",
"                                                                                                                                                                                                                                                                                                                                                                                                                                                                                           =>>=<<<>;;;;<<<<>=>;=&$$&$&&$$&==;===;;>;<<2<<<<<<<<<<<<<<>;;;;;>$                                                                                                                                                                                                                                                                                                                                                                                                                                                                                                                                                                     ",
"                                                                                                                                                                                                                                                                                                                                                                                                                                                                                           =>>=<<>;;;;><<<<>;>;&&&&$$$&==;>>>>>;;>>=<<<<<2<<<<2<<2<<<<>;>>>>$                                                                                                                                                                                                                                                                                                                                                                                                                                                                                                                                                                     ",
"                                                                                                                                                                                                                                                                                                                                                                                                                                                                                           =;>=<<=>>;><<<<<<=>>=$&$&==;>>>===;;>>>>;><<<<<<<<<<<<<<<<<>;;>>>&                                                                                                                                                                                                                                                                                                                                                                                                                                                                                                                                                                     ",
"                                                                                                                                                                                                                                                                                                                                                                                                                                                                                           =>>=<>;>;;><2<<<<=>>=&$&=;>>;==&&$&==;>>>;<<<<<<<<<<<<<<2<<<<;;>>;                                                                                                                                                                                                                                                                                                                                                                                                                                                                                                                                                                     ",
"                                                                                                                                                                                                                                                                                                                                                                                                                                                                                           =>>=<=>>;><<<<<<<;;>;=&=>;;=&&$&&&$&&=>>>=<<2<<2<<2<<2<<<<<<<>=>>>$                                                                                                                                                                                                                                                                                                                                                                                                                                                                                                                                                                    ",
"                                                                                                                                                                                                                                                                                                                                                                                                                                                                                           =>;=>;>;;><<<<2<<<=>>==;;=&&&&$&$&&$&=;;>;><<<<<<<<<<<<<<<<<<>;;>;=                                                                                                                                                                                                                                                                                                                                                                                                                                                                                                                                                                    ",
"                                                                                                                                                                                                                                                                                                                                                                                                                                                                                           =>>=;>>=><<2<<<<<<&>>;;>;=&&&$&$&&$&&&=>>>=<<<<<<<<<<<<2<<2<<<<=>>=                                                                                                                                                                                                                                                                                                                                                                                                                                                                                                                                                                    ",
"                                                                                                                                                                                                                                                                                                                                                                                                                                                                                           ;>>==;>=><<<<<<<<<<;;>>>=&$$&&$&&$&$&$&=>>=<<<2<<2<<2<<<<<<<<<<<;>>@                                                  .........                                                                                                                                                                                                                                                                                                                                                                                                                                                                                                        ",
"                                                                                                                                                                                                                                                                                                                                                                                                                                                                                           ;>;=>>=<<<<<<<<2<<<=;;>;&$&&$&$&&$&&$&&$=>>;><<<<<<<<<<<<<<<2<<<=;>&                                            ..................                                                                                                                                                                                                                                                                                                                                                                                                                                                                                                     ",
"                                                                                                                                                                                                                                                                                                                                                                                                                                                                                           ;>>=>>=<<<<2<<<<<<<=;>>=$&&$&&$&$&&$&&$&&>>=><<<<<<<<<<2<<<<<<<<=>>=                                         ........................                                                                                                                                                                                                                                                                                                                                                                                                                                                                                                  ",
"                                                                                                                                                                                                                                                                                                                                                                                                                                                                                           ;;>;>>;<<<<<<<<<<<<<>;>=$&$&$&&$&&$&&$&&$>>;><<<<2<<2<<<<<2<<<<<<;>>@                                     ............XXoOOooX..........                                                                                                                                                                                                                                                                                                                                                                                                                                                                                               ",
"                                                                                                                                                                                                                                                                                                                                                                                                                                                                                           ;>>>;=<<<<<<<2<<2<<<;;>=&&&$&&$$&=>;&&$&&=>>;><<<<<<<<<<<<<<<2<<<=>>&                                 ...........XXoOOOOOOOOOOOOoo........                                                                                                                                                                                                                                                                                                                                                                                                                                                                                             ",
"                                                                                                                                                                                                                                                                                                                                                                                                                                                                                           =>;>>=<<<<2<<<<<<<<<;;>;&&$&$&&==;>;;=&&$=>>;><2<<<<<<<<2<<<<<<<<=>;&                                 ........XXooOOOOO+++++++@OOooX......                                                                                                                                                                                                                                                                                                                                                                                                                                                                                             ",
"                                                                                                                                                                                                                                                                                                                                                                                                                                                                                           =>>>;><<<<<<<<<<<<<<<;;;=$&&$&=>>>;;>;;=$&>;;><<<<2<<2<<<<<2<<<<<;;>=                               .......XXoOOOOO#O++O+O++O++O+OOOOoX.....                                                                                                                                                                                                                                                                                                                                                                                                                                                                                           ",
"                                                                                                                                                                                                                                                                                                                                                                                                                                                                                           =>>>=<<<2<<<<<2<<2<<<>;>=$&&$=>;;===;;>>&$;>>;<<<<<<<<<<<<<<<<<<<<=>;                            >......XooOO+OO++#O+O++O++O+O++O+++OOOoX....,                                                                                                                                                                                                                                                                                                                                                                                                                                                                                         ",
"                                                                                                                                                                                                                                                                                                                                                                                                                                                                                           =>;>=<<<<<<2<<<<<<<<<>;>;&$&&>>&&&$&&=;>;$=>>;><<<<<<<<2<<<<<2<<<<=>>=                         <......XoOOOO++++O+++O++O++O+++O++O+O+OOOOo.....,                                                                                                                                                                                                                                                                                                                                                                                                                                                                                       ",
"                                                                                                                                                                                                                                                                                                                                                                                                                                                                                           =;>>=<<<<<<<<<<<<<<<<>;;;=$$=>;$$$&$&&&>>$&;;;><<<<<2<<<<<2<<<<<<<=>>;                       >.....XoOOOOOO+++O++O+O++O++O++O++O++O+++++#Ooo....,                                                                                                                                                                                                                                                                                                                                                                                                                                                                                      ",
"                                                                                                                                                                                                                                                                                                                                                                                                                                                                                           =>>;><<<2<<<<2<<2<<<<<>;>=$&>>&&&&$&&$$>>&&=;>;><<<<<<<<<<<<<<<2<<>;>;                     .....XooOOO#OOO#+O++O++O++O++O++O+O++O++O+O++O++Ooo....>                                                                                                                                                                                                                                                                                                                                                                                                                                                                                    ",
"                                                                                                                                                                                                                                                                                                                                                                                                                                                                                           &>>=<<<<<<<<<<<<<<<2<<;=>=&&>>$$&&$&&$$>>=$&=>;;<<2<<<<2<<<<2<<<<<<;>>=                   ......oO+O++OOoO+O++O++O++O++O++O+++O++O++O++O+O++Oo......                                                                                                                                                                                                                                                                                                                                                                                                                                                                                   ",
"                                                                                                                                                                                                                                                                                                                                                                                                                                                                                           &>>=<<<<<<2<<<<<<<<<<<<>;;;$>>=&$&&$&&&>>$&$=>;><<<<<<<<<<<<<<<<<<<=;>=                 .......oOO++O+O..XO+O++O++O++O++O++O++O++O++O+++O++O++OXX....                                                                                                                                                                                                                                                                                                                                                                                                                                                                                  ",
"                                                                                                                                                                                                                                                                                                                                                                                                                                                                                            =>>;<<2<<<<<<2<<2<<<<<;=>>$=>>=&&$&$=;>>$$&=;>;><<<<2<<<<2<<<<2<<<=>>;               ......XoOO++O++Oo..XO++O++O++O++O++O++O++O++O++O+O++++O++Oo.....                                                                                                                                                                                                                                                                                                                                                                                                                                                                                 ",
"                                                                                                                                                                                                                                                                                                                                                                                                                                                                                            &>>=<<<<<<<<<<<<<<<2<<>;>>=&>>>;&$&=;>;=&&$&=>;;<<<<<<<<<<<<<<<<<<<;;>=            ......XoOO#+O++O+OX..oOO++O++O++O++O++O++O++O++O++O+O+O++O++OO.....                                                                                                                                                                                                                                                                                                                                                                                                                                                                                ",
"                                                                                                                                                                                                                                                                                                                                                                                                                                                                                             ;>>;<<<2<<2<<<<<<<<<<<>;>>$=;>>>>>>>>=&$&&$=>;><<2<<<<2<<<<2<<<<<<=;>=          ......XoOO++O++O++OO..XOO++O++O++O++O++O++O++O++O++O+++++O++O+#OoX....                                                                                                                                                                                                                                                                                                                                                                                                                                                                               ",
"                                                                                                                                                                                                                                                                                                                                                                                                                                                                                             &>>=<<<<<<<<<2<<2<<<<<;;>>$&=>>;>>;;=$&&$&&&;>;><<<<<<<<<<<<<<2<<<=;;;  .............XOO#+O++O++O++X..oO+O++O++O++O++O++O++O++O++O++O+O++O++O++O+Oo...                                                                                                                                                                                                                                                                                                                                                                                                                                                                               ",
"                                                                                                                                                                                                                                                                                                                                                                                                                                                                                             $>>;<<<<<<<<<<<<<<<<<<>;;>;$&$$&=&$$$&&$&$&&=>;><<<<2<<<<2<<<<<<<<<>;>&X...........ooOO+O++O++O++OO..X+OO+O++O++O++O++O++O++O++O++O++O++O++O++O+++OX..X                                                                                                                                                                                                                                                                                                                                                                                                                                                                              ",
"                                                                                                                                                                                                                                                                                                                                                                                                                                                                                              ;>;><2<<2<<<<<<<<2<<<>;;>;$&$$&&&&&&$&&$&&$=;;>><<<<<<<<<<<2<<<<<<>;>&o..........ooO#+++O++O++O++O..XO++++O++O++O++O++O++O++O++O++O++O++O++O++O+O+X..X                                                                                                                                                                                                                                                                                                                                                                                                                                                                              ",
"                                                                                                                                                                                                                                                                                                                                                                                                                                                                                              =>>;<<<<<<<2<<2<<<<<<<>=>>$$&&&$&&$&&$&&$&&&;>;;<<<<<<2<<<<<<<<<<<;;>=@oX..XXXoOOOO+OO+O++O++O++Oo..OO++O+O++O++O++O++O++O++O++O++O++O++O++O++O++OO...,                                                                                                                                                                                                                                                                                                                                                                                                                                                                             ",
"                                                                                                                                                                                                                                                                                                                                                                                                                                                                                              &;>=<<<<<<<<<<<<<<<<<<>=>>&&&$&&$&$&$&$&&$&&=>;=<<2<<<<<<2<<<2<<<<>;;;$OOooOOOOO#O#+O+++O++O++O+OX..O+O++O++O++O++O++O++O++O++O++O++O++O++O++O++O+OX...                                                                                                                                                                                                                                                                                                                                                                                                                                                                             ",
"                                                                                                                                                                                                                                                                                                                                                                                                                                                                                               ;>;><2<<2<<<<<<2<<2<<>;;>;$$&$&&$&&&$&&$&&$=;;;><<<<<<<<<<<<<<<2<<>;:&#+O+O+O++O++O++O++O++O++OO..o+O++O++++O++O++O++O++O++O++O++O++O++O++O++O++O+O...>                                                                                                                                                                                                                                                                                                                                                                                                                                                                            ",
"                                                                                                                                                                                                                                                                                                                                                                                                                                                                                               =>>;><<<<<<2<<<<<<<<<<<=>>$&&$&&$&$&&$&&$&&&;>>;<<<<2<<<<<<<<<<<<<>;>=$++O+++O++O++O++O++O++O++o..XO++O+O+O++O++O++O++O++O++O++O++O++O++O++O++O++O+X..X                                                                                                                                                                                                                                                                                                                                                                                                                                                                            ",
"                                                                                                                                                                                                                                                                                                                                                                                                                                                                                               &>>=><<<<<<<<<<<<<<<<<<&>>&&$&&$&$&&$&&$&$&&=>>=<<<<<<<<<2<<2<<<<<;;:=%+O+++O++O++O++O++O++O++OX..X+O++O+++O++O++O++O++O++O++O++O++O++O++O++O++O++Oo..X                                                                                                                                                                                                                                                                                                                                                                                                                                                                            ",
"                                                                                                                                                                                                                                                                                                                                                                                                                                                                                                =>>;><<2<<<<2<<2<<2<<<=>>=&&$&&$&&$&$&&$&&$=>>;<<<<<<2<<<<<<<<2<<<>;;-O+O+O++O++O++O++O++O++OOX..OO++++O++O++O++O++O++O++O++O++O++O++O++O++O++O++OO...                                                                                                                                                                                                                                                                                                                                                                                                                                                                            ",
"                                                                                                                                                                                                                                                                                                                                                                                                                                                                                                &>>;><<<<<<<<<<<<<<<<<<=>>$$&$&$&&$&&$&&$&&&;>>=<<2<<<<<<<<<<<<<<<:;>:#O++O++O++O++O++O++O++OO.XXO++O+O++O+O++O++O++O++O++O++O++O++O++O++O++O++O++OX..X                                                                                                                                                                                                                                                                                                                                                                                                                                                                           ",
"                                                                                                                                                                                                                                                                                                                                                                                                                                                                                                $>>;><<<<2<<<<<<<<<<2<<&>>$$&&$&$&&$&&$&&$&&=>>=<<<<<<<2<<2<<<<<<<:;::$++O++O++O++O++O++O+O+OOX.O++O++O+++O++O++O++O++O++O++O++O++O++O++O++O++O++O+oX..                                                                                                                                                                                                                                                                                                                                                                                                                                                                           ",
"                                                                                                                                                                                                                                                                                                                                                                                                                                                                                                 =>>;>2<<<<<<<2<<2<<<<<<=>;=$&&$&&$&&$&&$&&$&=>>;<<<2<<<<<<<<<2<<<>;::-O++O++O++O++O++O++O++OO..O+O+O++O+O++O++O++O++O++O++O++O++O++O++O++O++O++O++OO..X                                                                                                                                                                                                                                                                                                                                                                                                                                                                          ",
"                                                                                                                                                                                                                                                                                                                                                                                                                                                                                                 &>>;;<<<<<<<<<<<<<<<<<<=>>=$&&$&$&$&&$&&$&&$$>>=<<<<<<<<<<<<<<<<<<>;::#O++O++O++O++O++O++O+OO..OO+++O++O++O++O++O++O++O++O++O++O++O++O++O++O++O++O+OX..                                                                                                                                                                                                                                                                                                                                                                                                                                                                          ",
"                                                                                                                                                                                                                                                                                                                                                                                                                                                                                                  ;;;><<<2<<2<<<<<<<<2<<&;>;&$&$&&$&&$&&$&$&&$>>;<<<<<2<<2<<2<<<<<<;-::$+O++O++O++O++O++O++OOo..O++O++O++OOo+O++O++O++O++O++O++O++O++O++O++O++O++O++Oo...                                                                                                                                                                                                                                                                                                                                                                                                                                                                         ",
"                                                                                                                                                                                                                                                                                                                                                                                                                                                                                                  =;;><<<<<<<<<2<<2<<<<<;;>;=&$&&$&&$&$&&$$&&&>>;><2<<<<<<<<<<<2<<<>;::&++O++O++O++O++O++O++OX..oO++O++OOOXXO+O++O++O++O++O++O++O++O++O++O++O++O++O++OX..,                                                                                                                                                                                                                                                                                                                                                                                                                                                                        ",
"                                                                                                                                                                                                                                                                                                                                                                                                                                                                                                  &=>;><<<<<<<<<<<<<<<<<<=>>=$&&$&$&$&&$$&&=;;>>>;<<<<<<<<<<<<<<<<<>;;:;%%###++O++O++O++O++OOX.Xo++O++OOoX.XoO++O++O++O++O++O++O++O++O++O++O++O++O++OOo....                                                                                                                                                                                                                                                                                                                                                                                                                                                                       ",
"                                                                                                                                                                                                                                                                                                                                                                                                                                                                                                    ;;><<<2<<2<<<<<<2<<2<=>>;&$&&$&&&$&===;>>>;>>=<<<<2<<2<<2<<<<<<<>=>:;-=**&$#+O++O++O++O+OX..o+O++OOXX..XOO++O++O++O++O++O++O++O++O++O++O++O++O+O+OOX...                                                                                                                                                                                                                                                                                                                                                                                                                                                                       ",
"                                                                                                                                                                                                                                                                                                                                                                                                                                                                                                    ;>;><<<<<<<<<2<<<<<<<;;;;=$$&&$$&==;>>;;==&=>;><<<<<<<<<<<<2<<<<:=>::::::;-&%%O++O++O++OOX.XXO++OoX...XOO+O++O++O++O++O++O++O++O++O++O++O++O++O+++OX....                                                                                                                                                                                                                                                                                                                                                                                                                                                                      ",
"                                                                                                                                                                                                                                                                                                                                                                                                                                                                                                    =>;><<<<<<<<<<<<<<<<<<=;>=&$&&==;>>;;==&&$&&>>=><<<<<<<<<<<<<<<<>=::--;;;::;-=%O++O++O++oX..X++OoX..XoOO+++O++O++O++O++O++O++O++O++O++O++O++O++O+OOOo...                                                                                                                                                                                                                                                                                                                                                                                                                                                                      ",
"                                                                                                                                                                                                                                                                                                                                                                                                                                                                                                    =>;><<<2<<2<<<<2<<2<<<&;>=&$&&>>>>>;=&$&$&&$>;=><<<<<2<<2<<<<<<<>=::*===-;::;=*+O++O++O+o...X+OoX..XOO+O+O++O++O++O++O++O++O++O++O++O++O++O++O++O+#Oo....                                                                                                                                                                                                                                                                                                                                                                                                                                                                     ",
"                                                                                                                                                                                                                                                                                                                                                                                                                                                                                                     ;>;><<<<<<<<<<<<<<<<<=;>;==>>>>;=&$&&&$$$&;>>=;<<2<<<<<<<<2<<<<<<;::;<<<>-;:::=+O++O++OOX..XOoX...XO+O+++O++O++O++O++O++O++O++O++O++O++O++O++O++O++OX....                                                                                                                                                                                                                                                                                                                                                                                                                                                                    ",
"                                                                                                                                                                                                                                                                                                                                                                                                                                                                                                     ;>;><<<<<<<<2<<<<<<<<<>;>;>>>=&$$&$&$$&;>>>>>=><<<<<<<<<<<<<<1<<<=:>=<<<<<:;:::=O++O++OoX..Xo....oOOO++O++O++O++O++O++O++O++O++O++O++O++O++O++O++O+OoX...                                                                                                                                                                                                                                                                                                                                                                                                                                                                    ",
"                                                                                                                                                                                                                                                                                                                                                                                                                                                                                                      ;;><<2<<<<<<<<2<<2<<<>;>;&&$$&&&$$$&;>>;>;====><<<2<<2<<<<<<<<<<=>:-<<<<<<:=:::=+O++O+OX...X...oO++++O+O++O++O++O++O++O++O++O++O++O++O++O++O++O++O+OOX...                                                                                                                                                                                                                                                                                                                                                                                                                                                                   ",
"                                                                                                                                                                                                                                                                                                                                                                                                                                                                                                      ;>;;<<<<<2<<<<<<<<<<<<>;;&&$&&&$&;>>>>;=&&&>>>><<<<<<<<<<<2<<1<<<=:>;<<<<<<<=:::=+O++OOX.....XOO+++O++O++O++O++O++O++O++O++O++O++O++O++O++O++O++O+++Oo....                                                                                                                                                                                                                                                                                                                                                                                                                                                                  ",
"                                                                                                                                                                                                                                                                                                                                                                                                                                                                                                      =>;;<<<<<<<<2<<<<<<<<<;;>=$&$$=>>>>>=&&$=>>;>>;;<<<<<<<2<<<<<<<<<-::=<<<<<<<<=>::=%O+OOX....XOO++O++O++O++O++O++O++O++O++O++O++O++O++O++O++O++O++O+++OX....                                                                                                                                                                                                                                                                                                                                                                                                                                                                 ",
"                                                                                                                                                                                                                                                                                                                                                                                                                                                                                                     $&;>>;<<2<<<<<<<2<<2<<<;;;;=&>>>>>;&&&=>>>>>;;>;;<2<<2<<<<<<<<<1<<=:>;<<<1<<1<<=:::;%O+Oo...XOO++++O++O++O++O++O++O++O++O++O++O++O++O++O++O++O++O++O+O+OX....                                                                                                                                                                                                                                                                                                                                                                                                                                                                ",
"                                                                                                                                                                                                                                                                                                                                                                                                                                                                                                     =;;>>;<<<<<2<<<<<<<<<<<>;;;;=>>;==&&==;>>;;=&;;;><<<<<<<<<2<<2<<<>->:;:><<<<<<<>;::;*#+Oo...X++O+O++O++O++O++O++O++O++O++O++O++O++O++O++O++O++O++O++O++OO....<                                                                                                                                                                                                                                                                                                                                                                                                                                                               ",
"                                                                                                                                                                                                                                                                                                                                                                                                                                                                                                  ==;>>>>>=<<<<<<<<<<<<<<<<<;;;>>>;=&$&&=;>;;==&&&=;;><<<<<<2<<<<<<>>>;;::>=:<1<<1<<<:;::-%#OO..XOO++O++O++O++O++O++O++O++O++O++O++O++O++O++O++O++O++O++O++O#Oo.....>                                                                                                                                                                                                                                                                                                                                                                                                                                                             ",
"                                                                                                                                                                                                                                                                                                                                                                                                                                                                                                 =>>;;;;;>;><2<<<<2<<2<<2<<>;>;===&$&=;;>;;=&&$&&&&;>;><<<<<<<<>>>;;;;>>:;-;><<<<<<<<<:;;;=#OO..X++O++O++O++O++O++O++O++O++O++O++O++O++O++O++O++O++O++O++O++O++OoX.....                                                                                                                                                                                                                                                                                                                                                                                                                                                           ",
"                                                                                                                                                                                                                                                                                                                                                                                                                                                                                                =>>;;;>;;>>;<<<<<<<<<<<<<<<>;==&&&==;>>;;=&&$&&$&$&=>;><<<2<<>>>;;;>>>;::=:<<<<1<<1<<<<:::;*#O..OO+O++O++O++O++O++O++O++O++O++O++O++O++O++O++O++O++O++O++O++O++OOOo.....                                                                                                                                                                                                                                                                                                                                                                                                                                                          ",
"                                                                                                                                                                                                                                                                                                                                                                                                                                                                                               ;>>;;<<<;;>>=<<<2<<<<<<<<<<<<>=&&=;>>>;==&$&$&&$&&&$=>;><<<>>>;;>>>;;;;>;:;><<1<<<<<1<<<<:;:;%O..X+O++O++O++O++O++O++O++O++O++O++O++O++O++O++O++O++O++O++O++O+O++OOOoX.....                                                                                                                                                                                                                                                                                                                                                                                                                                                        ",
"                                                                                                                                                                                                                                                                                                                                                                                                                                                                                              &>>>=><<<;;>>;<<<<<<<2<<2<<2<<>==;>>>>;=&&$&$&&$&&$&$=>;><<<;==>>;>>;===<->>;<<<<<<1<<<<<<;-:>&O..XO++++O++O++O++O++O++O++O++O++O++O++O++O++O++O++O++O++O++O++O++O+#OOo......                                                                                                                                                                                                                                                                                                                                                                                                                                                       ",
"                                                                                                                                                                                                                                                                                                                                                                                                                                                                                              &>;=<<<<<<>=>>;<<<<<<<<<<<<<<>;>>>;>=&$$&$&&&$&&$&&$&&;>;=;;>>>>>===;<<<<*:>=<<1<<1<<<1<<<<>;>=$X.XO+O+O++O++O++O++O++O++O++O++O++O++O++O++O++O++O++O++O++O++++O++O++OOOOX....                                                                                                                                                                                                                                                                                                                                                                                                                                                      ",
"                                                                                                                                                                                                                                                                                                                                                                                                                                                                                            .@>>=<<<<<<<;=>>;<2<<2<<<<<<<<<;;>;;&&&$&&&&$&$&&$&$&$&&=>>>>>>>===<<<<<<<<=:>;<<<<<<<<<<<1<<:-:;-X.X+++O++O++O++O++O++O++O++O++O++O++O++O++O++O++O++O++O++O++O+O+O++O+++#OOX....                                                                                                                                                                                                                                                                                                                                                                                                                                                     ",
"                                                                                                                                                                                                                                                                                                                                                                                                                                                                                           ..$>>;<<<<2<<<<;>;;<<<<<<2<<2<<<>;>;&&$&&$&$&&$&$&&$&&&$&=>;>;>==<<<<<<<<<<<<;:>;><1<<1<<<<<<<<>;::o.o+O++O++O++O++O++O++O++O++O++O++O++O++O++O++O++O++O++O++O++O+++O++O++O+OOo....                                                                                                                                                                                                                                                                                                                                                                                                                                                    ",
"                                                                                                                                                                                                                                                                                                                                                                                                                                                                                         ....&;>;<<<<<<<<<=>>=<<<<<<<<<<<<<<>;>=$&&$&$&$&&$&&$&&$&$&&=>;==<<<<<<<<<<<<<<*:>=>1<<<<<<1<<1<<;-::#.OO++O++O++O++O++O++O++O++O++O++O++O++O++O++O++O++O++O++O++O++O++O++O+O++#OX...                                                                                                                                                                                                                                                                                                                                                                                                                                                    ",
"                                                                                                                                                                                                                                                                                                                                                                                                                                                                                        .....=>;=<<2<<<<<<=>>;<<2<<<<<<<<2<<>;>=$&$&&&$&$&&$&&$&&$&&$=>;><<<<<<<<<<<<<<<=>:;><<<1<<1<<<<<<:;::%.O++O++O++O++O++O++O++O++O++O++O++O++O++O++O++O++O++O++O++O++O+O++O++O++OO+OX...                                                                                                                                                                                                                                                                                                                                                                                                                                                   ",
"                                                                                                                                                                                                                                                                                                                                                                                                                                                                                      X....oo=>>=<<<<<<<<<<=;>;><<<2<<2<<<<<;;>=&$&&$&&$&&$&&$&$&&$&=;>;><<<<<<<<<<2<<<<<-:>;><<<<<<<<<1<<<>;:;OO+O+O++O++O++O++O++O++O++O++O++O++O++O++O++O++O++O++O++O++O++O++O++O++O+++Oo....                                                                                                                                                                                                                                                                                                                                                                                                                                                  ",
"                                                                                                                                                                                                                                                                                                                                                                                                                                                                                      ....XoO&>>=<<<<2<<<<<=>>;><<<<<<<<<<<<>;;;&&$&$&&$&$&$&&$&$&&$=;>;;><<<<<2<<<<<<<<<=>:;><<1<<1<<1<<<<:;:;O#O+++O++O++O++O++O++O++O++O++O++O++O++O++O++O++O++O++O++O++O++O++O++O++O+O+O....,                                                                                                                                                                                                                                                                                                                                                                                                                                                 ",
"                                                                                                                                                                                                                                                                                                                                                                                                                                                                                     X...oOO@$;>=<<<<<<<2<<>;>;><<<<<<<<<2<<>;;;=$&$&&$&$&&&$&&$&&$&=>>>;;<<<<<<<<<<<<<<<=:>;><<<<<<<<<<<<<;;:>#O++O++O++O++O++O++O++O++O++O++O++O++O++O++O++O++O++O++O++O++O++O++O++O++O++OoX...                                                                                                                                                                                                                                                                                                                                                                                                                                                 ",
"                                                                                                                                                                                                                                                                                                                                                                                                                                                                                   ....XoOO#+#>>=<<<<<<<<<<<=>>;><<2<<<<<<<<<>;>=$&&$&&$&&$&&$&&$&&&=>;;>;><<2<<<<2<<2<<<:;>;><<<1<<1<<1<<<>;>:&+O++O++O++O++O++O++O++O++O++O++O++O++O++O++O++O++O++O++O++O++O++O++O++O++O++OOo..,                                                                                                                                                                                                                                                                                                                                                                                                                                                ",
"                                                                                                                                                                                                                                                                                                                                                                                                                                                                                  ....oOOO+O+@;>>><2<<2<<<<<=>>;><<<<<<2<<<<<;;>;=$&&$&$&&$&$&&$&&$&=>;;>>;<<<<<<<<<<<<<<<=>>;><<<<<<<<<1<<>;::*++O++O++O++O++O++O++O++O++O++O++O++O++O++O++O++O++O++O++O++O++O++O++O++O++O++OOX..X                                                                                                                                                                                                                                                                                                                                                                                                                                               ",
"                                                                                                                                                                                                                                                                                                                                                                                                                                                                                 ....oO+O#+O+O=:>=<<<<<<<2<<>;>;><<<<<<<<>>>;;;>;;$&$&&$&$&&$&$&$&&$=;;;;>;><<<2<<<<<<<<<<=>>;><<1<<1<<<<<<:;::&O++O++O++O++O++O++O++O++O++O++O++O++O++O++O++O++O++O++O++O++O++O++O++O++O++O++OX...                                                                                                                                                                                                                                                                                                                                                                                                                                               ",
"                                                                                                                                                                                                                                                                                                                                                                                                                                                                                 X..X+#O++O++O&>>=<<<<<<<<<<<;>>;><<<2<<<;==;>>>>>$&&$&&$&&$&&&$&&$&&=>;;>>=<<<<<<<<2<<1<<=:>;><<<<<<<<1<<<;-::$O+O++O++O++O++O++O++O++O++O++O++O++O++O++O++O++O++O++O++O++O++O++O++O++O++O++OOO....                                                                                                                                                                                                                                                                                                                                                                                                                                              ",
"                                                                                                                                                                                                                                                                                                                                                                                                                                                                                X..XOO++O++O++#:>;<<2<<<<<<<<=;>;><<<<;==>>>>>;;>>$&$&$&&$&&$&&$&$$$&;>==>>=<<<<<<<<<<<<<<<;;>;>1<<1<<1<<1<>;>:#+O++O++O++O++O++O++O++O++O++O++O++O++O++O++O++O++O++O++O++O++O++O++O++O++O++O++OX....                                                                                                                                                                                                                                                                                                                                                                                                                                             ",
"                                                                                                                                                                                                                                                                                                                                                                                                                                                                               ...XOO++O++O++OO=>>=><<<<2<<<<=>>;>>;==>>>>>;===;;>&$&$&&$&&$&$&$$=>>>>>===>>=<<2<<2<<<<1<<<=;>;><<<<<<<<<<>;>>=O+O++O++O++O++O++O++O++O++O++O++O++O++O++O++O++O++O++O++O++O++O++O++O++O++O++O++Oo....                                                                                                                                                                                                                                                                                                                                                                                                                                             ",
"                                                                                                                                                                                                                                                                                                                                                                                                                                                                              ....o+++O++O++O++%=>>;><<<<<<<<<;;>;;>>>>>>==;<<;;>>;$&&$&&$&&$$&>>>>>;;>;&&>>=<<<<<<<<2<<<<<=;:;><<1<<1<<1<>;>:&+O++O++O++O++O++O++O++O++O++O++O++O++O++O++O++O++O++O++O++O++O++O++O++O++O++O+O++OX....                                                                                                                                                                                                                                                                                                                                                                                                                                            ",
"                                                                                                                                                                                                                                                                                                                                                                                                                                                                             ....XO+O+O++O++O++O$:>>;><<<<<<<<=;>>>>>>===<<<<<<>;>>$&$&&$&$&=>>>>>=&&&;>=&=>>&<<<<<<<<<<<<<<>;>:><<<<<<<<<:;::#O++O++O++O++O++O++O++O++O++O++O++O++O++O++O++O++O++O++O++O++O++O++O++O++O++O+++O+OoX...                                                                                                                                                                                                                                                                                                                                                                                                                                            ",
"                                                                                                                                                                                                                                                                                                                                                                                                                                                                            ....XO+O+++O++O++O++O=:>>;><<2<<<<=;;>;>;=<<<<<<<<<;;>;$&&$$$&;>>>>=&$$&$$=>=$&>>=<<<2<<<<<2<<<<;;>;:<<1<<1<<>;>;=O++O++O++O++O++O++O++O++O++O++O++O++O++O++O++O++O++O++O++O++O++O++O++O++O++O++O++O+OOX..X                                                                                                                                                                                                                                                                                                                                                                                                                                           ",
"                                                                                                                                                                                                                                                                                                                                                                                                                                                                          .....OO+O++O++O++O++O++O=->>;=><<<<<<>==;>;=<<<<<<<<<;;>>&&$&;>>>>;=&$&$&&&=;>;=&=>>=<<<<<2<<<<<<<:;>;><<<<<<<<:;:=%++O++O++O++O++O++O++O++O++O++O++O++O++O++O++O++O++O++O++O++O++O++O++O++O++O++O++O++++o...                                                                                                                                                                                                                                                                                                                                                                                                                                           ",
"                                                                                                                                                                                                                                                                                                                                                                                                                                                                          ....oOO#+O++O++O++O++O+O%%=;;;;><<<<<<>>;;;;><<<<<<<<>;>;&&=;;>>;==&$&&&$$&=;>;;$=>>&<<<<<<<<<<1<<>;:::><1<<1<<;;;*#+O++O++O++O++O++O++O++O++O++O++O++O++O++O++O++O++O++O++O++O++O++O++O++O++O++O++O++O+OOX..                                                                                                                                                                                                                                                                                                                                                                                                                                           ",
"                                                                                                                                                                                                                                                                                                                                                                                                                                                                         ....oOO+O++O++O++O++O++O++O$=;>;;>><<<<<<>;>>;<<<<<2<<>;;>;=>>;==&&&$&$&$&==;>>>>$&>>&><<<<<<<<1<<<<>;>;;<<<<<<:;>-%+O++O++O++O++O++O++O++O++O++O++O++O++O++O++O++O++O++O++O++O++O++O++O++O++O++O++O++O+O+OX...                                                                                                                                                                                                                                                                                                                                                                                                                                          ",
"                                                                                                                                                                                                                                                                                                                                                                                                                                                                        ....oOO#O+O++O++O++O++O++O+++#*-;>;;>><<<<>;;>;><<<<<<<<>=>>>;==&&$&$&$&&==;>;;;>>&$;>;=><<2<<2<<<<<<>;:;=<<1<<:;;;*#O++O++O++O++O++O++O++O++O++O++O++O++O++O++O++O++O++O++O++O++O++O++O++O++O++O++O++O+++O+o...                                                                                                                                                                                                                                                                                                                                                                                                                                          ",
"                                                                                                                                                                                                                                                                                                                                                                                                                                                                      .....oOO+O+++O++O++O++O++O++O++O#%=;>>;;><<<<>;>>;<<2<<<<<;=>>;&&$&&&$&&==;>>;=&&=;>;$&>>=;<<<<<<<<<1<<>;;:;,<<<>;;:-%O++O++O++O++O++O++O++O++O++O++O++O++O++O++O++O++O++O++O++O++O++O++O++O++O++O++O++O++O++OO....                                                                                                                                                                                                                                                                                                                                                                                                                                         ",
"                                                                                                                                                                                                                                                                                                                                                                                                                                                                     ....XoOO#+O+O++O++O++O++O++O++O+OO#$%=;>>;;>><>;;>;><<<<2<<>>;>=&$&&$&&=;>>>;==&&&=;>>&&;>;;><<<<<<<1<<<<>;>>;<<<=>>;&#O++O++O++O++O++O++O++O++O++O++O++O++O++O++O++O++O++O++O++O++O++O++O++O++O++O++O++O++O++O+X...                                                                                                                                                                                                                                                                                                                                                                                                                                         ",
"                                                                                                                                                                                                                                                                                                                                                                                                                                                                   <....OOO++O++O++O++O++O++O++O++O++++++O#%;>>;;;<<>=>>;<<<<<<<<<=>;$&$&&=;>>;;=&$&==;;;;>;$=;>;;<<2<<1<<<<<<:;>>=<<:;>;*#O+O++O++O++O++O++O++O++O++O++O++O++O++O++O++O++O++O++O++O++O++O++O++O++O++O++O++O++O++O++Oo...>                                                                                                                                                                                                                                                                                                                                                                                                                                        ",
"                                                                                                                                                                                                                                                                                                                                                                                                                                                                   X...XOO#O++O++O++O++O++O++O++O++O+O+O+OOO=>>>>;><;=>>=<<2<<<<<<=>>$&$&;>>>>>=&$$&=>>>;=>>$&>>=;<<<<<<<<1<<<:;::=<<=>:-%++++O++O++O++O++O++O++O++O++O++O++O++O++O++O++O++O++O++O++O++O++O++O++O++O++O++O++O++O++O++O....                                                                                                                                                                                                                                                                                                                                                                                                                                        ",
"                                                                                                                                                                                                                                                                                                                                                                                                                                                                 .....oOO++O++O++O++O++O++O++O++O++O++O+OOo#O$=;>;><;=>>;<<<<<2<<<=>>=&=>>>;&&$&$&>>>>;&&&>>=$>>;><<<<<<<1<<<<>;::;<=>:=%O+O+O++O++O++O++O++O++O++O++O++O++O++O++O++O++O++O++O++O++O++O++O++O++O++O++O++O++O++O++O++OOX..X                                                                                                                                                                                                                                                                                                                                                                                                                                        ",
"                                                                                                                                                                                                                                                                                                                                                                                                                                                                .....XO#+O++O++O++O++O++O++O++O++O++O++OX.XO+O#%;>;><<=>>;<<<<<<<<=>>>>>;;&$&&$&>>>>;&$&$$=>>&=>>;><2<<2<<<<<<<>;::=:::$#+O++O++O++O++O++O++O++O++O++O++O++O++O++O++O++O++O++O++O++O++O++O++O++O++O++O++O++O++O++O++O+o...                                                                                                                                                                                                                                                                                                                                                                                                                                        ",
"                                                                                                                                                                                                                                                                                                                                                                                                                                                              .....ooOO+O++O++O++O++O++O++O++O++O++O++OOX..XO++$=>>;><=>>;<<<<<<<<<;>;>;&$&$&&>>>>=&$$&$&&>>>=$;>;;<<<<<<<<1<<<;-:>&::=+++++O++O++O++O++O++O++O++O++O++O++O++O++O++O++O++O++O++O++O++O++O++O++O++O++O++O++O++O++O++O++OX...                                                                                                                                                                                                                                                                                                                                                                                                                                       ",
"                                                                                                                                                                                                                                                                                                                                                                                                                                                             X....oO+++O++O++O++O++O++O++O++O++O++O++O+OOX..OO+O%;>;><<=>>;><2<<2<<=>>=&&$&=>>>>=$&&&$&;>>>;>>$>>=;<<<<<<<1<<<<>;::+$$+OO+O++O++O++O++O++O++O++O++O++O++O++O++O++O++O++O++O++O++O++O++O++O++O++O++O++O++O++O++O++O++O+Oo....                                                                                                                                                                                                                                                                                                                                                                                                                                      ",
"                                                                                                                                                                                                                                                                                                                                                                                                                                                            .....OO+++O++O++O++O++O++O++O++O++O++O++O++OOX..X+++O%;>;;<=>>=><<<<<<<=;>=&&;>>>;=&$$&$&=>>;>&=;>;>>=;<<2<<1<<<<<<>;::#+++++O++O++O++O++O++O++O++O++O++O++O++O++O++O++O++O++O++O++O++O++O++O++O++O++O++O++O++O++O++O++O+++OX...                                                                                                                                                                                                                                                                                                                                                                                                                                      ",
"                                                                                                                                                                                                                                                                                                                                                                                                                                                            ....oOO+O++O++O++O++O++O++O++O++O++O++O++O++Oo...OOOO$-:;-<;;>=><<<<<<<>;>;=;;>;==&&&$&&=;>;==&&;>;>>=;<<<<<<<<1<<<>;::#OO++++O++O++O++O++O++O++O++O++O++O++O++O++O++O++O++O++O++O++O++O++O++O++O++O++O++O++O++O++O++O++O+++Oo..<                                                                                                                                                                                                                                                                                                                                                                                                                                     ",
"                                                                                                                                                                                                                                                                                                                                                                                                                                                           ....oOO+O++O++O++O++O++O++O++O++O++O++O++O++OOOX..o+Ooo&;;;><=>;><<<<<<<<=>>>>;==&&&$&=;;>;==&&$&;>;>>;><<<<2<<1<<<<>;::&O++O+O+O++O++O++O++O++O++O++O++O++O++O++O++O++O++O++O++O++O++O++O++O++O++O++O++O++O++O++O++O++O++O+OOOo....                                                                                                                                                                                                                                                                                                                                                                                                                                   ",
"                                                                                                                                                                                                                                                                                                                                                                                                                                                           ...oOO#++O++O++O++O++O++O++O++O++O++O++O++O++OOX..XOOoX#;>>-<=>>;><<2<<<<;;>>;=&&&$&==>>;;=&$&&==>>>>>;><<<<<<<<<1<<>;::*+O++O+++O++O++O++O++O++O++O++O++O++O++O++O++O++O++O++O++O++O++O++O++O++O++O++O++O++O++O++O++O++O++O+OOOo....                                                                                                                                                                                                                                                                                                                                                                                                                                  ",
"                                                                                                                                                                                                                                                                                                                                                                                                                                                          ...O+O++O++O++O++O++O++O++O++O++O++O++O++O++O+++OX..OOo.o&;>;>=;>;><<<<<<<<=>>;&&$&&=>>;==&$&===>>==;;>>><<<<<<2<<<<<;-::&O++O+++O++O++O++O++O++O++O++O++O++O++O++O++O++O++O++O++O++O++O++O++O++O++O++O++O++O++O++O++O++O++O+++#OOX....                                                                                                                                                                                                                                                                                                                                                                                                                                 ",
"                                                                                                                                                                                                                                                                                                                                                                                                                                                         ...XOO#O++O++O++O++O++O++O++O++O++O++O++O++O++O+OOX..XoX.o$;>>=>;>;><<<<<2<<>;;;=&===>>;&$&&&=;>>;=&&=>>>;><<2<<<<<<1<>;>:#+O++O+O++O++O++O++O++O++O++O++O++O++O++O++O++O++O++O++O++O++O++O++O++O++O++O++O++O++O++O++O++O++O++O+O+OOo....                                                                                                                                                                                                                                                                                                                                                                                                                                ",
"                                                                                                                                                                                                                                                                                                                                                                                                                                                       <....O++O++O++O++O++O++O++O++O++O++O++O++O++O++O+++OOX..X..X@=>>=<=>>;><<<<<<<<=;>;=;>>;=&&===;>;;=&&&$&;;;;><<<<<<<<<<<>;:-@++O++O++O++O++O++O++O++O++O++O++O++O++O++O++O++O++O++O++O++O++O++O++O++O++O++O++O++O++O++O++O++O++O+O+O#OOo....                                                                                                                                                                                                                                                                                                                                                                                                                               ",
"                                                                                                                                                                                                                                                                                                                                                                                                                                                       ....XO+++O++O++O++O++O++O++O++O++O++O++O++O++O++O+++OX.....X@*:>;<=>>;><<<<<<<<=;>>>>>>=&$&>>>>>;&&$&$&$=;>;;<<<<<2<<<<>;>>*OO++O++O++O++O++O++O++O++O++O++O++O++O++O++O++O++O++O++O++O++O++O++O++O++O++O++O++O++O++O++O++O++O++++++O+O+X...                                                                                                                                                                                                                                                                                                                                                                                                                               ",
"                                                                                                                                                                                                                                                                                                                                                                                                                                                       ...oO+O+O++O++O++O++O++O++O++O++O++O++O++O++O++O++O+OX.....oO%=;>;=>>;;<<<2<<<<<>;>>;&&$&>>>>>;&&$&&$&&&$=>;><<<<<<<<<<;;>:#++O++O++O++O++O++O++O++O++O++O++O++O++O++O++O++O++O++O++O++O++O++O++O++O++O++O++O++O++O++O++O++O++O+OO+O+++Oo....                                                                                                                                                                                                                                                                                                                                                                                                                              ",
"                                                                                                                                                                                                                                                                                                                                                                                                                                                      X..XO+++O++O++O++O++O++O++O++O++O++O++O++O++O++O++O+++O....XOO#$>>==>:;><<<<<<<<<;;>=&&=>>>>=&&$&$&&$&$&&$=>;;<<2<<<<2<>;>::%O++O++O++O++O++O++O++O++O++O++O++O++O++O++O++O++O++O++O++O++O++O++O++O++O++O++O++O++O++O++O++O++O++O++O++O++OX....                                                                                                                                                                                                                                                                                                                                                                                                                             ",
"                                                                                                                                                                                                                                                                                                                                                                                                                                                      ...oO+O+O++O++O++O++O++O++O++O++O++O++O++O++O++O++O++OOX...oOO@#=>><;;>><<<<<2<<<<>;>>>>>;=&$&$&$&&$&$$$&;;>;;===;>;===;>:::=++O++O++O++O++O++O++O++O++O++O++O++O++O++O++O++O++O++O++O++O++O++O++O++O++O++O++O++O++O++O++O++O++O+++++O+O++OX....                                                                                                                                                                                                                                                                                                                                                                                                                            ",
"                                                                                                                                                                                                                                                                                                                                                                                                                                                     ...XO+++O++O++O++O++O++O++O++O++O++O++O++O++O++O++O+O++Oo...oO#O+&:>;=-:;><<<<<<<<<;;>;;>=&$$&&&$&$$&=>>>>>>>>>>>>>>>>>>>::::=O++O++O++O++O++O++O++O++O++O++O++O++O++O++O++O++O++O++O++O++O++O++O++O++O++O++O++O++O++O++O++O++O++O+O+O+++O+OOo.....                                                                                                                                                                                                                                                                                                                                                                                                                          ",
"                                                                                                                                                                                                                                                                                                                                                                                                                                                    ...ooO++O++O++O++O++O++O++O++O++O++O++O++O++O++O++O+++O++OX..XO++O#::==;;;><<2<<<<<<<>;>=&$&$&&$&$&=>>;>>>>;>;>;>>>>;>>;>>;;:>%O++O++O++O++O++O++O++O++O++O++O++O++O++O++O++O++O++O++O++O++O++O++O++O++O++O++O++O++O++O++O++O++O++O++O++O++O+#OOX.......                                                                                                                                                                                                                                                                                                                                                                                                                      ",
"                                                                                                                                                                                                                                                                                                                                                                                                                                                    ...oOO+O++O++O++O++O++O++O++O++O++O++O++O++O++O++O++O++O++X..XOO++#;:;=;>;;<<<<<2<<<<>;;;&&$&&$$&==;>>>;;;;;;;=;;=;;;;;;;>;;>:$++O++O++O++O++O++O++O++O++O++O++O++O++O++O++O++O++O++O++O++O++O++O++O++O++O++O++O++O++O++O++O++O++O+++O++O++O+O+Ooo......                                                                                                                                                                                                                                                                                                                                                                                                                      ",
"                                                                                                                                                                                                                                                                                                                                                                                                                                                   <..oOO+O++O++O++O++O++O++O++O++O++O++O++O++O++O++O++O++O++OXX.XO++OO*:>>;;;><<<<<<<<<<>;;;;&&$&===;>;;=;>>>>>;>;;;>;;;>>>>>;;::#++O++O++O++O++O++O++O++O++O++O++O++O++O++O++O++O++O++O++O++O++O++O++O++O++O++O++O++O++O++O++O++O++O++O++O++O++O++OOX.......                                                                                                                                                                                                                                                                                                                                                                                                                    ",
"                                                                                                                                                                                                                                                                                                                                                                                                                                                  ...XOO+++O++O++O++O++O++O++O++O++O++O++O++O++O++O++O++O++O+OXX.XOO++O$>:;;;;><<<<<<<<<<<>;>>;==;>>>;;;;;;<<<<<<<<<<<<<<<<<<<;;;;O+O++O++O++O++O++O++O++O++O++O++O++O++O++O++O++O++O++O++O++O++O++O++O++O++O++O++O++O++O++O++O++O++O++O++O++O++O++O+OOo.......                                                                                                                                                                                                                                                                                                                                                                                                                   ",
"                                                                                                                                                                                                                                                                                                                                                                                                                                                  ...XO+O+O++O++O++O++O++O++O++O++O++O++O++O++O++O++O++O++O+++XX.XO++O+#;>;;;>;><<<2<<2<<<;;>>>>>>;;;;;><<<<<<<<<<<<<<<<<<<<<>;>;&+O++O++O++O++O++O++O++O++O++O++O++O++O++O++O++O++O++O++O++O++O++O++O++O++O++O++O++O++O++O++O++O++O++O++O++O++O++O+++OOoooX.....>                                                                                                                                                                                                                                                                                                                                                                                                                ",
"                                                                                                                                                                                                                                                                                                                                                                                                                                                  ...oOO+++O++O++O++O++O++O++O++O++O++O++O++O++O++O++O++O++O++OX..oO++O+*:>;;>;;><<<<<<<>;;;>;>;=;>;;><<<<<<<<<<<<<<<<<2<<<<>;;;*#++O++O++O++O++O++O++O++O++O++O++O++O++O++O++O++O++O++O++O++O++O++O++O++O++O++O++O++O++O++O++O++O++O++O++O++O++O++O++OOOOOOoo....>                                                                                                                                                                                                                                                                                                                                                                                                               ",
"                                                                                                                                                                                                                                                                                                                                                                                                                                                 ...XOO++O++O++O++O++O++O++O++O++O++O++O++O++O++O++O++O++O++OOOX.XoOO++O$::>>>>;><<<<<<>;;>;;;>=;;<<<<<2<<2<<<<<<<<<2<<<<<<>;;>-$++O++O++O++O++O++O++O++O++O++O++O++O++O++O++O++O++O++O++O++O++O++O++O++O++O++O++O++O++O++O++O++O++O++O++O++O++O++O++O+++++++Oo....                                                                                                                                                                                                                                                                                                                                                                                                               ",
"                                                                                                                                                                                                                                                                                                                                                                                                                                                 ...XOO++O++O++O++O++O++O++O++O++O++O++O++O++O++O++O++O++O+++OOo..oO++O+$:::>>>;;<2<<2<>;>>;==>=<<<<<<<<<<<<<2<<2<<<<<<<<2<;;>>=#O++O++O++O++O++O++O++O++O++O++O++O++O++O++O++O++O++O++O++O++O++O++O++O++O++O++O++O++O++O++O++O++O++O++O++O++O++O++O++O+O+O+O++X..X                                                                                                                                                                                                                                                                                                                                                                                                               ",
"                                                                                                                                                                                                                                                                                                                                                                                                                                                 ....O+O++O++O++O++O++O++O++O++O++O++O++O++O++O++O++O++O++O+O++o..oO+O+++@&=;;;><<<<<<=;>>;><<;<<<<<2<<<<<<<<<<<<<<<<<2<<<<=;>;%+O++O++O++O++O++O++O++O++O++O++O++O++O++O++O++O++O++O++O++O++O++O++O++O++O++O++O++O++O++O++O++O++O++O++O++O++O++O++O++O++O+O++OOX...                                                                                                                                                                                                                                                                                                                                                                                                              ",
"                                                                                                                                                                                                                                                                                                                                                                                                                                                 ...XOO++O++O++O++O++O++O++O++O++O++O++O++O++O++O++O++O++O++O+OOX.XO++O+O++%;>;><<<<<;>;>;;<<<<<<2<<<<<2<<2<<<<<<<2<<<<<<<=>>;%OO++O++O++O++O++O++O++O++O++O++O++O++O++O++O++O++O++O++O++O++O++O++O++O++O++O++O++O++O++O++O++O++O++O++O++O++O++O++O++O++++++O++Ooo...                                                                                                                                                                                                                                                                                                                                                                                                             ",
"                                                                                                                                                                                                                                                                                                                                                                                                                                                 X..oO++O++O++O++O++O++O++O++O++O++O++O++O++O++O++O++O++O++O++OOX.XO++O++O+$=>;;<<<<<=>>;><<<<<<<<<<<<<<<<<<<<<2<<<<<<<<<=>>;%OO+++O++O++O++O++O++O++O++O++O++O++O++O++O++O++O++O++O++O++O++O++O++O++O++O++O++O++O++O++O++O++O++O++O++O++O++O++O++O++O++O+O++O+++o...                                                                                                                                                                                                                                                                                                                                                                                                             ",
"                                                                                                                                                                                                                                                                                                                                                                                                                                                 ...oO+O++O++O++O++O++O++O++O++O++O++O++O++O++O++O++O++O++O++O+OX..oO++O++O#=>;><<<<=>>;;<<<<<<<<<<<2<<<<<<<<<<<<<<<2<<;=>>=$O+++O++O++O++O++O++O++O++O++O++O++O++O++O++O++O++O++O++O++O++O++O++O++O++O++O++O++O++O++O++O++O++O++O++O++O++O++O++O++O++O++O+O++O+O+O....                                                                                                                                                                                                                                                                                                                                                                                                           ",
"                                                                                                                                                                                                                                                                                                                                                                                                                                                 ...o+O++O++O++O++O++O++O++O++O++O++O++O++O++O++O++O++O++O++O++OX.XXO+O++O+#=>>;=;;=>>=><<<<<<2<<2<<<<<<<<2<<2<<<2<<<<=>>>=OO+++O++O++O++O++O++O++O++O++O++O++O++O++O++O++O++O++O++O++O++O++O++O++O++O++O++O++O++O++O++O++O++O++O++O++O++O++O++O++O++O++O+++++O++OOX...                                                                                                                                                                                                                                                                                                                                                                                                           ",
"                                                                                                                                                                                                                                                                                                                                                                                                                                                 ...oO++O++O++O++O++O++O++O++O++O++O++O++O++O++O++O++O++O++O++OOoX.XO++O++O#*:>;;;;;>;;><<<2<<<<<<<<<<2<<<<<<<<<<<<<<;;>>;%O#+O++O++O++O++O++O++O++O++O++O++O++O++O++O++O++O++O++O++O++O++O++O++O++O++O++O++O++O++O++O++O++O++O++O++O++O++O++O++O++O++O++O+O+O++O+OX...                                                                                                                                                                                                                                                                                                                                                                                                           ",
"                                                                                                                                                                                                                                                                                                                                                                                                                                                 ...oOO++O++O++O++O++O++O++O++O++O++O++O++O++O++O++O++O++O++O++OOX..XO+O++O#&:>>>>>>;><<<<<<<<<<<<<2<<<<<<<<<<<<<<<>;;>;-%O++O++O++O++O++O++O++O++O++O++O++O++O++O++O++O++O++O++O++O++O++O++O++O++O++O++O++O++O++O++O++O++O++O++O++O++O++O++O++O++O++O++O++O++O++OOX...                                                                                                                                                                                                                                                                                                                                                                                                           ",
"                                                                                                                                                                                                                                                                                                                                                                                                                                                 ...XO+O++O++O++O++O++O++O++O++O++O++O++O++O++O++O++O++O++O++O++OX...XoO+O+O&;:;;;;;;<<<2<<<<2<<2<<<<<<<2<<2<<2<<>;;;>;=%OO+O++O++O++O++O++O++O++O++O++O++O++O++O++O++O++O++O++O++O++O++O++O++O++O++O++O++O++O++O++O++O++O++O++O++O++O++O++O++O++O++O++O++O++O++O+OOX...                                                                                                                                                                                                                                                                                                                                                                                                          ",
"                                                                                                                                                                                                                                                                                                                                                                                                                                                 ...XO+O++O++O++O++O++O++O++O++O++O++O++O++O++O++O++O++O++O++O++OOX...XXOOOO#*;;===;<<<<<<<<<<<<<<<<<2<<<<<<<<<>>;;>;;%#O++O++O++O++O++O++O++O++O++O++O++O++O++O++O++O++O++O++O++O++O++O++O++O++O++O++O++O++O++O++O++O++O++O++O++O++O++O++O++O++O++O++O++O++O++O++OOX...                                                                                                                                                                                                                                                                                                                                                                                                          ",
"                                                                                                                                                                                                                                                                                                                                                                                                                                                 ...XOO++O++O++O++O++O++O++O++O++O++O++O++O++O++O++O++O++O++O++O++OX.....XXoO#&;:;;><<<<<<2<<<<<<<<<<<<<<<<<<>>;;>>;=%OO#O++O++O++O++O++O++O++O++O++O++O++O++O++O++O++O++O++O++O++O++O++O++O++O++O++O++O++O++O++O++O++O++O++O++O++O++O++O++O++O++O++O++O++O++O++O++Oo...                                                                                                                                                                                                                                                                                                                                                                                                          ",
"                                                                                                                                                                                                                                                                                                                                                                                                                                                 ....OO++O++O++O++O++O++O++O++O++O++O++O++O++O++O++O++O++O++O++O++OOoX....X.Xo@*;>>;>><2<<<<<<<<2<<2<<<<<>>>>;;>>;;*#@O+O+O++O++O++O++O++O++O++O++O++O++O++O++O++O++O++O++O++O++O++O++O++O++O++O++O++O++O++O++O++O++O++O++O++O++O++O++O++O++O++O++O++O++O++O++O++O+Oo....                                                                                                                                                                                                                                                                                                                                                                                                         ",
"                                                                                                                                                                                                                                                                                                                                                                                                                                                 ....o+O++O++O++O++O++O++O++O++O++O++O++O++O++O++O++O++O++O++O++O++OOOX........$;>;>==<<<<<<2<<<<<<<<<2<>>===>>>>;&$O#+O+++O++O++O++O++O++O++O++O++O++O++O++O++O++O++O++O++O++O++O++O++O++O++O++O++O++O++O++O++O++O++O++O++O++O++O++O++O++O++O++O++O++O++O++O++O++O+OX...                                                                                                                                                                                                                                                                                                                                                                                                         ",
"                                                                                                                                                                                                                                                                                                                                                                                                                                                  ...XO++O++O++O++O++O++O++O++O++O++O++O++O++O++O++O++O++O++O++O++O+++OOoX.....o$=>>>>;;==><<<<<>;;====;;>>>>>>=&##O++O++O++O++O++O++O++O++O++O++O++O++O++O++O++O++O++O++O++O++O++O++O++O++O++O++O++O++O++O++O++O++O++O++O++O++O++O++O++O++O++O++O++O++O++O++O++O++OOX...                                                                                                                                                                                                                                                                                                                                                                                                         ",
"                                                                                                                                                                                                                                                                                                                                                                                                                                                  ...XO+O++O++O++O++O++O++O++O++O++O++O++O++O++O++O++O++O++O++O++O++O++O+OOoXoOOOO=>>>>>>>;==;=;>>>>>>>>>>>;>=&O@O++O++O++O++O++O++O++O++O++O++O++O++O++O++O++O++O++O++O++O++O++O++O++O++O++O++O++O++O++O++O++O++O++O++O++O++O++O++O++O++O++O++O++O++O++O++O++O++O++OX...                                                                                                                                                                                                                                                                                                                                                                                                         ",
"                                                                                                                                                                                                                                                                                                                                                                                                                                                  ..XXOO++O++O++O++O++O++O++O++O++O++O++O++O++O++O++O++O++O++O++O++O++O+++O+O+OO+#@@=;>;>>>>>>>>>>>>>>;>;=&$#@OO+#O++O++O++O++O++O++O++O++O++O++O++O++O++O++O++O++O++O++O++O++O++O++O++O++O++O++O++O++O++O++O++O++O++O++O++O++O++O++O++O++O++O++O++O++O++O++O++O++O+Oo....                                                                                                                                                                                                                                                                                                                                                                                                        ",
"                                                                                                                                                                                                                                                                                                                                                                                                                                                  ...XO++O++O++O++O++O++O++O++O++O++O++O++O++O++O++O++O++O++O++O++O++O++O++O++++O++O@@@#$&=;>>>>;=&&$$#@@O#+O#++O++O++O++O++O++O++O++O++O++O++O++O++O++O++O++O++O++O++O++O++O++O++O++O++O++O++O++O++O++O++O++O++O++O++O++O++O++O++O++O++O++O++O++O++O++O++O++O++O++O+OX...                                                                                                                                                                                                                                                                                                                                                                                                        ",
"                                                                                                                                                                                                                                                                                                                                                                                                                                                  ....o+O++O++O++O++O++O++O++O++O++O++O++O++O++O++O++O++O++O++O++O++O++O++O++O+O++O++++@OO@#$&&#OOOO#@O#O++O++O++O++O++O++O++O++O++O++O++O++O++O++O++O++O++O++O++O++O++O++O++O++O++O++O++O++O++O++O++O++O++O++O++O++O++O++O++O++O++O++O++O++O++O++O++O++O++O++O++O++OOo...                                                                                                                                                                                                                                                                                                                                                                                                        ",
"                                                                                                                                                                                                                                                                                                                                                                                                                                                   >..oO++O++O++O++O++O++O++O++O++O++O++O++O++O++O++O++O++O++O++O++O++O++O++O++O++O+O+O++O#@#$$#O##O++O++O++O++O++O++O++O++O++O++O++O++O++O++O++O++O++O++O++O++O++O++O++O++O++O++O++O++O++O++O++O++O++O++O++O++O++O++O++O++O++O++O++O++O++O++O++O++O++O++O++O++O++O++Oo...                                                                                                                                                                                                                                                                                                                                                                                                        ",
"                                                                                                                                                                                                                                                                                                                                                                                                                                                    .XoOO++O++O++O++O++O++O++O++O++O++O++O++O++O++O++O++O++O++O++O++O++O++O++O++O++O+++O++O+O++O++O+O++O++O++O++O++O++O++O++O++O++O++O++O++O++O++O++O++O++O++O++O++O++O++O++O++O++O++O++O++O++O++O++O++O++O++O++O++O++O++O++O++O++O++O++O++O++O++O++O++O++O++O++O++O+OO...                                                                                                                                                                                                                                                                                                                                                                                                        ",
"                                                                                                                                                                                                                                                                                                                                                                                                                                                    ..XO+O++O++O++O++O++O++O++O++O++O++O++O++O++O++O++O++O++O++O++O++O++O++O++O++O++O++O+++O++O++O+++O++O++O++O++O++O++O++O++O++O++O++O++O++O++O++O++O++O++O++O++O++O++O++O++O++O++O++O++O++O++O++O++O++O++O++O++O++O++O++O++O++O++O++O++O++O++O++O++O++O++O++O++O++O++X...                                                                                                                                                                                                                                                                                                                                                                                                       ",
"                                                                                                                                                                                                                                                                                                                                                                                                                                                    ..XOO++O++O++O++O++O++O++O++O++O++O++O++O++O++O++O++O++O++O++O++O++O++O++O++O++O++O+O+O+++O++O++O++O++O++O++O++O++O++O++O++O++O++O++O++O++O++O++O++O++O++O++O++O++O++O++O++O++O++O++O++O++O++O++O++O++O++O++O++O++O++O++O++O++O++O++O++O++O++O++O++O++O++O++O++O++OX...                                                                                                                                                                                                                                                                                                                                                                                                       ",
"                                                                                                                                                                                                                                                                                                                                                                                                                                                    ,..oO+O++O++O++O++O++O++O++O++O++O++O++O++O++O++O++O++O++O++O++O++O++O++O++O++O++O+++O+O+O++O+O++O++O++O++O++O++O++O++O++O++O++O++O++O++O++O++O++O++O++O++O++O++O++O++O++O++O++O++O++O++O++O++O++O++O++O++O++O++O++O++O++O++O++O++O++O++O++O++O++O++O++O++O++O++O++o...                                                                                                                                                                                                                                                                                                                                                                                                       ",
"                                                                                                                                                                                                                                                                                                                                                                                                                                                     ..oOO+++O++O++O++O++O++O++O++O++O++O++O++O++O++O++O++O++O++O++O++O++O++O++O++O++O++O+++O++O+++O++O++O++O++O++O++O++O++O++O++O++O++O++O++O++O++O++O++O++O++O++O++O++O++O++O++O++O++O++O++O++O++O++O++O++O++O++O++O++O++O++O++O++O++O++O++O++O++O++O++O++O++O++O++O+O...                                                                                                                                                                                                                                                                                                                                                                                                       ",
"                                                                                                                                                                                                                                                                                                                                                                                                                                                     ..oO+O+O++O++O++O++O++O++O++O++O++O++O++O++O++O++O++O++O++O++O++O++O++O++O++O++O++O++O++O++O++O++O++O++O++O++O++O++O++O++O++O++O++O++O++O++O++O++O++O++O++O++O++O++O++O++O++O++O++O++O++O++O++O++O++O++O++O++O++O++O++O++O++O++O++O++O++O++O++O++O++O++O++O++O++O+OX...                                                                                                                                                                                                                                                                                                                                                                                                      ",
"                                                                                                                                                                                                                                                                                                                                                                                                                                                     ..Xo++O++O++O++O++O++O++O++O++O++O++O++O++O++O++O++O++O++O++O++O++O++O++O++O++O++O++O++O++O++O++O++O++O++O++O++O++O++O++O++O++O++O++O++O++O++O++O++O++O++O++O++O++O++O++O++O++O++O++O++O++O++O++O++O++O++O++O++O++O++O++O++O++O++O++O++O++O++O++O++O++O++O++O++O++OX...                                                                                                                                                                                                                                                                                                                                                                                                      ",
"                                                                                                                                                                                                                                                                                                                                                                                                                                                     ...XO++O++O++O++O++O++O++O++O++O++O++O++O++O++O++O++O++O++O++O++O++O++O++O++O++O++O++O++O++O++O++O++O++O++O++O++O++O++O++O++O++O++O++O++O++O++O++O++O++O++O++O++O++O++O++O++O++O++O++O++O++O++O++O++O++O++O++O++O++O++O++O++O++O++O++O++O++O++O++O++O++O++O++O++O++o...                                                                                                                                                                                                                                                                                                                                                                                                      ",
"                                                                                                                                                                                                                                                                                                                                                                                                                                                      X..O+O++O++O++O++O++O++O++O++O++O++O++O++O++O++O++O++O++O++O++O++O++O++O++O++O++O++O++O++O++O++O++O++O++O++O++O++O++O++O++O++O++O++O++O++O++O++O++O++O++O++O++O++O++O++O++O++O++O++O++O++O++O++O++O++O++O++O++O++O++O++O++O++O++O++O++O++O++O++O++O++O++O++O++O++OO...                                                                                                                                                                                                                                                                                                                                                                                                      ",
"                                                                                                                                                                                                                                                                                                                                                                                                                                                      ...XO++O++O++O++O++O++O++O++O++O++O++O++O++O++O++O++O++O++O++O++O++O++O++O++O++O++O++O++O++O++O++O++O++O++O++O++O++O++O++O++O++O++O++O++O++O++O++O++O++O++O++O++O++O++O++O++O++O++O++O++O++O++O++O++O++O++O++O++O++O++O++O++O++O++O++O++O++O++O++O++O++O++O++O++O+OX...                                                                                                                                                                                                                                                                                                                                                                                                     ",
"                                                                                                                                                                                                                                                                                                                                                                                                                                                      ....O+O++O++O++O++O++O++O++O++O++O++O++O++O++O++O++O++O++O++O++O++O++O++O++O++O++O++O++O++O++O++O++O++O++O++O++O++O++O++O++O++O++O++O++O++O++O++O++O++O++O++O++O++O++O++O++O++O++O++O++O++O++O++O++O++O++O++O++O++O++O++O++O++O++O++O++O++O++O++O++O++O++O++O++O++OX...                                                                                                                                                                                                                                                                                                                                                                                                     ",
"                                                                                                                                                                                                                                                                                                                                                                                                                                                     .....OO++O++O++O++O++O++O++O++O++O++O++O++O++O++O++O++O++O++O++O++O++O++O++O++O++O++O++O++O++O++O++O++O++O++O++O++O++O++O++O++O++O++O++O++O++O++O++O++O++O++O++O++O++O++O++O++O++O++O++O++O++O++O++O++O++O++O++O++O++O++O++O++O++O++O++O++O++O++O++O++O++O++O++O++O+X...                                                                                                                                                                                                                                                                                                                                                                                                     ",
"                                                                                                                                                                                                                                                                                                                                                                                                                                                    ,.....O++O++O++O++O++O++O++O++O++O++O++O++O++O++O++O++O++O++O++O++O++O++O++O++O++O++O++O++O++O++O++O++O++O++O++O++O++O++O++O++O++O++O++O++O++O++O++O++O++O++O++O++O++O++O++O++O++O++O++O++O++O++O++O++O++O++O++O++O++O++O++O++O++O++O++O++O++O++O++O++O++O++O++O++O++o...                                                                                                                                                                                                                                                                                                                                                                                                     ",
"                                                                                                                                                                                                                                                                                                                                                                                                                                                   >......oO++O++O++O++O++O++O++O++O++O++O++O++O++O++O++O++O++O++O++O++O++O++O++O++O++O++O++O++O++O++O++O++O++O++O++O++O++O++O++O++O++O++O++O++O++O++O++O++O++O++O++O++O++O++O++O++O++O++O++O++O++O++O++O++O++O++O++O++O++O++O++O++O++O++O++O++O++O++O++O++O++O++O++O++O+O...                                                                                                                                                                                                                                                                                                                                                                                                     ",
"                                                                                                                                                                                                                                                                                                                                                                                                                                                 ....XXX..X+O++O++O++O++O++O++O++O++O++O++O++O++O++O++O++O++O++O++O++O++O++O++O++O++O++O++O++O++O++O++O++O++O++O++O++O++O++O++O++O++O++O++O++O++O++O++O++O++O++O++O++O++O++O++O++O++O++O++O++O++O++O++O++O++O++O++O++O++O++O++O++O++O++O++O++O++O++O++O++O++O++O++O++O++OO...>                                                                                                                                                                                                                                                                                                                                                                                                    ",
"                                                                                                                                                                                                                                                                                                                                                                                                                                                ....ooOX...O+O++O++O++O++O++O++O++O++O++O++O++O++O++O++O++O++O++O++O++O++O++O++O++O++O++O++O++O++O++O++O++O++O++O++O++O++O++O++O++O++O++O++O++O++O++O++O++O++O++O++O++O++O++O++O++O++O++O++O++O++O++O++O++O++O++O++O++O++O++O++O++O++O++O++O++O++O++O++O++O++O++O++O++O++OX...                                                                                                                                                                                                                                                                                                                                                                                                    ",
"                                                                                                                                                                                                                                                                                                                                                                                                                                               ....oOOOoX..O+O++O++O++O++O++O++O++O++O++O++O++O++O++O++O++O++O++O++O++O++O++O++O++O++O++O++O++O++O++O++O++O++O++O++O++O++O++O++O++O++O++O++O++O++O++O++O++O++O++O++O++O++O++O++O++O++O++O++O++O++O++O++O++O++O++O++O++O++O++O++O++O++O++O++O++O++O++O++O++O++O++O++O++O++OX...                                                                                                                                                                                                                                                                                                                                                                                                    ",
"                                                                                                                                                                                                                                                                                                                                                                                                                                               X..XoO#+OX..OO++O++O++O++O++O++O++O++O++O++O++O++O++O++O++O++O++O++O++O++O++O++O++O++O++O++O++O++O++O++O++O++O++O++O++O++O++O++O++O++O++O++O++O++O++O++O++O++O++O++O++O++O++O++O++O++O++O++O++O++O++O++O++O++O++O++O++O++O++O++O++O++O++O++O++O++O++O++O++O++O++O++O++O++O+o...                                                                                                                                                                                                                                                                                                                                                                                                    ",
"                                                                                                                                                                                                                                                                                                                                                                                                                                              X..oOO++OOo..o+O++O++O++O++O++O++O++O++O++O++O++O++O++O++O++O++O++O++O++O++O++O++O++O++O++O++O++O++O++O++O++O++O++O++O++O++O++O++O++O++O++O++O++O++O++O++O++O++O++O++O++O++O++O++O++O++O++O++O++O++O++O++O++O++O++O++O++O++O++O++O++O++O++O++O++O++O++O++O++O++O++O++O++O++OO...                                                                                                                                                                                                                                                                                                                                                                                                    ",
"                                                                                                                                                                                                                                                                                                                                                                                                                                             X..XO#+O++OO..XO++O++O++O++O++O++O++O++O++O++O++O++O++O++O++O++O++O++O++O++O++O++O++O++O++O++O++O++O++O++O++O++O++O++O++O++O++O++O++O++O++O++O++O++O++O++O++O++O++O++O++O++O++O++O++O++O++O++O++O++O++O++O++O++O++O++O++O++O++O++O++O++O++O++O++O++O++O++O++O++O++O++O++O++O+O...                                                                                                                                                                                                                                                                                                                                                                                                    ",
"                                                                                                                                                                                                                                                                                                                                                                                                                                            X..XOOO++O+OOX..O+O++O++O++O++O++O++O++O++O++O++O++O++O++O++O++O++O++O++O++O++O++O++O++O++O++O++O++O++O++O++O++O++O++O++O++O++O++O++O++O++O++O++O++O++O++O++O++O++O++O++O++O++O++O++O++O++O++O++O++O++O++O++O++O++O++O++O++O++O++O++O++O++O++O++O++O++O++O++O++O++O++O++O++O++O....                                                                                                                                                                                                                                                                                                                                                                                                   ",
"                                                                                                                                                                                                                                                                                                                                                                                                                                           ....oO#+O++O++X..OO++O++O++O++O++O++O++O++O++O++O++O++O++O++O++O++O++O++O++O++O++O++O++O++O++O++O++O++O++O++O++O++O++O++O++O++O++O++O++O++O++O++O++O++O++O++O++O++O++O++O++O++O++O++O++O++O++O++O++O++O++O++O++O++O++O++O++O++O++O++O++O++O++O++O++O++O++O++O++O++O++O++O++O++O+X...                                                                                                                                                                                                                                                                                                                                                                                                   ",
"                                                                                                                                                                                                                                                                                                                                                                                                                                          ....oO++O++O+++o..O+O++O++O++O++O++O++O++O++O++O++O++O++O++O++O++O++O++O++O++O++O++O++O++O++O++O++O++O++O++O++O++O++O++O++O++O++O++O++O++O++O++O++O++O++O++O++O++O++O++O++O++O++O++O++O++O++O++O++O++O++O++O++O++O++O++O++O++O++O++O++O++O++O++O++O++O++O++O++O++O++O++O++O++O++Oo...                                                                                                                                                                                                                                                                                                                                                                                                   ",
"                                                                                                                                                                                                                                                                                                                                                                                                                                          ...XOO+O++O+O+OO..XO++O++O++O++O++O++O++O++O++O++O++O++O++O++O++O++O++O++O++O++O++O++O++O++O++O++O++O++O++O++O++O++O++O++O++O++O++O++O++O++O++O++O++O++O++O++O++O++O++O++O++O++O++O++O++O++O++O++O++O++O++O++O++O++O++O++O++O++O++O++O++O++O++O++O++O++O++O++O++O++O++O++O++O++O+O...                                                                                                                                                                                                                                                                                                                                                                                                   ",
"                                                                                                                                                                                                                                                                                                                                                                                                                                         ,...OO#O++O+++O+O...O+O++O++O++O++O++O++O++O++O++O++O++O++O++O++O++O++O++O++O++O++O++O++O++O++O++O++O++O++O++O++O++O++O++O++O++O++O++O++O++O++O++O++O++O++O++O++O++O++O++O++O++O++O++O++O++O++O++O++O++O++O++O++O++O++O++O++O++O++O++O++O++O++O++O++O++O++O++O++O++O++O++O++O++O+OO...                                                                                                                                                                                                                                                                                                                                                                                                   ",
"                                                                                                                                                                                                                                                                                                                                                                                                                                         X..XO+++O++O+++O+X..OO++O++O++O++O++O++O++O++O++O++O++O++O++O++O++O++O++O++O++O++O++O++O++O++O++O++O++O++O++O++O++O++O++O++O++O++O++O++O++O++O++O++O++O++O++O++O++O++O++O++O++O++O++O++O++O++O++O++O++O++O++O++O++O++O++O++O++O++O++O++O++O++O++O++O++O++O++O++O++O++O++O++O++O++OO...>                                                                                                                                                                                                                                                                                                                                                                                                  ",
"                                                                                                                                                                                                                                                                                                                                                                                                                                        ,..oOO+O++O++O+O++X..O++++O++O++O++O++O++O++O++O++O++O++O++O++O++O++O++O++O++O++O++O++O++O++O++O++O++O++O++O++O++O++O++O++O++O++O++O++O++O++O++O++O++O++O++O++O++O++O++O++O++O++O++O++O++O++O++O++O++O++O++O++O++O++O++O++O++O++O++O++O++O++O++O++O++O++O++O++O++O++O++O++O++O++O++OX...                                                                                                                                                                                                                                                                                                                                                                                                  ",
"                                                                                                                                                                                                                                                                                                                                                                                                                                        ..XOO++O++O++O++O+o..XOO+O++O++O++O++O++O++O++O++O++O++O++O++O++O++O++O++O++O++O++O++O++O++O++O++O++O++O++O++O++O++O++O++O++O++O++O++O++O++O++O++O++O++O++O++O++O++O++O++O++O++O++O++O++O++O++O++O++O++O++O++O++O++O++O++O++O++O++O++O++O++O++O++O++O++O++O++O++O++O++O++O++O++O++O+XX..                                                                                                                                                                                                                                                                                                                                                                                                  ",
"                                                                                                                                                                                                                                                                                                                                                                                                                                       ,..oOO+O++O++O++O++O..XOO++O++O++O++O++O++O++O++O++O++O++O++O++O++O++O++O++O++O++O++O++O++O++O++O++O++O++O++O++O++O++O++O++O++O++O++O++O++O++O++O++O++O++O++O++O++O++O++O++O++O++O++O++O++O++O++O++O++O++O++O++O++O++O++O++O++O++O++O++O++O++O++O++O++O++O++O++O++O++O++O++O++O++O++OoX..                                                                                                                                                                                                                                                                                                                                                                                                  ",
"                                                                                                                                                                                                                                                                                                                                                                                                                                      ...XOO+++O++O++O++O++X..OO++O++O++O++O++O++O++O++O++O++O++O++O++O++O++O++O++O++O++O++O++O++O++O++O++O++O++O++O++O++O++O++O++O++O++O++O++O++O++O++O++O++O++O++O++O++O++O++O++O++O++O++O++O++O++O++O++O++O++O++O++O++O++O++O++O++O++O++O++O++O++O++O++O++O++O++O++O++O++O++O++O++O++O++OOX..                                                                                                                                                                                                                                                                                                                                                                                                  ",
"                                                                                                                                                                                                                                                                                                                                                                                                                                      ...XO+O+O++O++O++O++OX..OO++O++O++O++O++O++O++O++O++O++O++O++O++O++O++O++O++O++O++O++O++O++O++O++O++O++O++O++O++O++O++O++O++O++O++O++O++O++O++O++O++O++O++O++O++O++O++O++O++O++O++O++O++O++O++O++O++O++O++O++O++O++O++O++O++O++O++O++O++O++O++O++O++O++O++O++O++O++O++O++O++O++O++O++OOo..                                                                                                                                                                                                                                                                                                                                                                                                  ",
"                                                                                                                                                                                                                                                                                                                                                                                                                                      ...XO++O++O++O++O++O+o..oO+O++O++O++O++O++O++O++O++O++O++O++O++O++O++O++O++O++O++O++O++O++O++O++O++O++O++O++O++O++O++O++O++O++O++O++O++O++O++O++O++O++O++O++O++O++O++O++O++O++O++O++O++O++O++O++O++O++O++O++O++O++O++O++O++O++O++O++O++O++O++O++O++O++O++O++O++O++O++O++O++O++O++O++O+Oo...                                                                                                                                                                                                                                                                                                                                                                                                 ",
"                                                                                                                                                                                                                                                                                                                                                                                                                                      ...oOO++O++O++O++O++OO..XOO++O++O++O++O++O++O++O++O++O++O++O++O++O++O++O++O++O++O++O++O++O++O++O++O++O++O++O++O++O++O++O++O++O++O++O++O++O++O++O++O++O++O++O++O++O++O++O++O++O++O++O++O++O++O++O++O++O++O++O++O++O++O++O++O++O++O++O++O++O++O++O++O++O++O++O++O++O++O++O++O++O++O++O++OOX..                                                                                                                                                                                                                                                                                                                                                                                                 ",
"                                                                                                                                                                                                                                                                                                                                                                                                                                      ...XO+O++O++O++O++O++OX..XOO++O++O++O++O++O++O++O++O++O++O++O++O++O++O++O++O++O++O++O++O++O++O++O++O++O++O++O++O++O++O++O++O++O++O++O++O++O++O++O++O++O++O++O++O++O++O++O++O++O++O++O++O++O++O++O++O++O++O++O++O++O++O++O++O++O++O++O++O++O++O++O++O++O++O++O++O++O++O++O++O++O++O++O++OX..                                                                                                                                                                                                                                                                                                                                                                                                 ",
"                                                                                                                                                                                                                                                                                                                                                                                                                                      ...XO++++O++O++O++O++Oo..XO++O++O++O++O++O++O++O++O++O++O++O++O++O++O++O++O++O++O++O++O++O++O++O++O++O++O++O++O++O++O++O++O++O++O++O++O++O++O++O++O++O++O++O++O++O++O++O++O++O++O++O++O++O++O++O++O++O++O++O++O++O++O++O++O++O++O++O++O++O++O++O++O++O++O++O++O++O++O++O++O++O++O++O++OOX..                                                                                                                                                                                                                                                                                                                                                                                                 ",
"                                                                                                                                                                                                                                                                                                                                                                                                                                      ...XOO+O++O++O++O++O++O..XOO++O++O++O++O++O++O++O++O++O++O++O++O++O++O++O++O++O++O++O++O++O++O++O++O++O++O++O++O++O++O++O++O++O++O++O++O++O++O++O++O++O++O++O++O++O++O++O++O++O++O++O++O++O++O++O++O++O++O++O++O++O++O++O++O++O++O++O++O++O++O++O++O++O++O++O++O++O++O++O++O++O++O++O+OOo..                                                                                                                                                                                                                                                                                                                                                                                                 ",
"                                                                                                                                                                                                                                                                                                                                                                                                                                      ...XO+O++O++O++O++O++OOXXOO++O++O++O++O++O++O++O++O++O++O++O++O++O++O++O++O++O++O++O++O++O++O++O++O++O++O++O++O++O++O++O++O++O++O++O++O++O++O++O++O++O++O++O++O++O++O++O++O++O++O++O++O++O++O++O++O++O++O++O++O++O++O++O++O++O++O++O++O++O++O++O++O++O++O++O++O++O++O++O++O++O++O++O+++Oo..>                                                                                                                                                                                                                                                                                                                                                                                                ",
"                                                                                                                                                                                                                                                                                                                                                                                                                                      ...XOO++O++O++O++O++O+OOOOO++O++O++O++O++O++O++O++O++O++O++O++O++O++O++O++O++O++O++O++O++O++O++O++O++O++O++O++O++O++O++O++O++O++O++O++O++O++O++O++O++O++O++O++O++O++O++O++O++O++O++O++O++O++O++O++O++O++O++O++O++O++O++O++O++O++O++O++O++O++O++O++O++O++O++O++O++O++O++O++O++O++O++O+O++O...                                                                                                                                                                                                                                                                                                                                                                                                ",
"                                                                                                                                                                                                                                                                                                                                                                                                                                      ...XOO+O++O++O++O++O+++O+O++O++O++O++O++O++O++O++O++O++O++O++O++O++O++O++O++O++O++O++O++O++O++O++O++O++O++O++O++O++O++O++O++O++O++O++O++O++O++O++O++O++O++O++O++O++O++O++O++O++O++O++O++O++O++O++O++O++O++O++O++O++O++O++O++O++O++O++O++O++O++O++O++O++O++O++O++O++O++O++O++O++O++O+++OOOX..                                                                                                                                                                                                                                                                                                                                                                                                ",
"                                                                                                                                                                                                                                                                                                                                                                                                                                      ....o+++O++O++O++O++O+++O++O++O++O++O++O++O++O++O++O++O++O++O++O++O++O++O++O++O++O++O++O++O++O++O++O++O++O++O++O++O++O++O++O++O++O++O++O++O++O++O++O++O++O++O++O++O++O++O++O++O++O++O++O++O++O++O++O++O++O++O++O++O++O++O++O++O++O++O++O++O++O++O++O++O++O++O++O++O++O++O++O++O++O++O++OOX..                                                                                                                                                                                                                                                                                                                                                                                                ",
"                                                                                                                                                                                                                                                                                                                                                                                                                                      ....o+O++O++O++O++O++O+O++O++O++O++O++O++O++O++O++O++O++O++O++O++O++O++O++O++O++O++O++O++O++O++O++O++O++O++O++O++O++O++O++O++O++O++O++O++O++O++O++O++O++O++O++O++O++O++O++O++O++O++O++O++O++O++O++O++O++O++O++O++O++O++O++O++O++O++O++O++O++O++O++O++O++O++O++O++O++O++O++O++O++O++O++O+OX..                                                                                                                                                                                                                                                                                                                                                                                                ",
"                                                                                                                                                                                                                                                                                                                                                                                                                                      ....o++O++O++O++O++O++O++O++O++O++O++O++O++O++O++O++O++O++O++O++O++O++O++O++O++O++O++O++O++O++O++O++O++O++O++O++O++O++O++O++O++O++O++O++O++O++O++O++O++O++O++O++O++O++O++O++O++O++O++O++O++O++O++O++O++O++O++O++O++O++O++O++O++O++O++O++O++O++O++O++O++O++O++O++O++O++O++O++O++O++O++O++Oo..                                                                                                                                                                                                                                                                                                                                                                                                "
};
